!!!COM: Bach, Johann Sebastian
!!!OPR: Six Concerts Avec plusieurs ... le prince regnant d'Anhalt-Coethen
!!!OTL: Brandenburgische Konzerte F
!!!XEN: Brandenburg Concerto No. 1 in F major
!!!OMV: Movement 1.
!!!SCT: BWV 1046
!!!YEC: Copyright 1994, Center for Computer Assisted Research in the Humanities
!!!YEM: Rights to all derivative electronic formats reserved.
!!!YEM: Refer to licensing agreement for further details.
!! For the following instrumentation: Corno I & II, Oboe I, II & III,
!!    Fagotto, Violino Piccolo, Violino I, Violino II, Viola,
!!    Violoncello, Continuo, Violone grosso
!! [Allegro]
**kern	**kern	**kern	**kern	**kern	**kern	**kern	**kern	**kern	**kern	**kern	**kern	**kern
*ICstr	*ICklav	*ICstr	*ICstr	*ICstr	*ICstr	*ICstr	*ICww	*ICww	*ICww	*ICww	*ICbras	*ICbras
*Icbass	*Icemba	*Icello	*Iviola	*Ivioln	*Ivioln	*Iviolp	*Ifagot	*Ioboe	*Ioboe	*Ioboe	*Icor	*Icor
*IGcont	*IGcont	*	*	*	*	*	*	*	*	*	*	*
!vgroso	!contin	!'cello	!viola	!v'lin2	!v'lin1	!v'linP	!fagot	!oboe3	!oboe2	!oboe1	!corno2	!corno1
*k[b-]	*k[b-]	*k[b-]	*k[b-]	*k[b-]	*k[b-]	*k[f#c#]	*k[b-]	*k[b-]	*k[b-]	*k[b-]	*k[]	*k[]
*F:	*F:	*F:	*F:	*F:	*F:	*F:	*F:	*F:	*F:	*F:	*F:	*F:
*M2/2	*M2/2	*M2/2	*M2/2	*M2/2	*M2/2	*M2/2	*M2/2	*M2/2	*M2/2	*M2/2	*M2/2	*M2/2
*MM48	*MM48	*MM48	*MM48	*MM48	*MM48	*MM48	*MM48	*MM48	*MM48	*MM48	*MM48	*MM48
*clefF4	*clefF4	*clefF4	*clefC3	*clefG2	*clefG2	*clefG2	*clefF4	*clefG2	*clefG2	*clefG2	*clefG2	*clefG2
=1-	=1-	=1-	=1-	=1-	=1-	=1-	=1-	=1-	=1-	=1-	=1-	=1-
4FF\	4F\	4F\	8r	8r	8r	8r	4F\	8r	8r	8r	8r	1r
.	.	.	8A\L	8c/L	8f/L	8f/L	.	16a/LL	16cc\LL	16ff\LL	8F/L	.
.	.	.	.	.	.	.	.	16g/JJ	16b-\JJ	16ee\JJ	.	.
8r	8r	8r	8c\	8f/	8a/	8a/	8r	16a/LL	16cc\LL	16ff\LL	8A/	.
.	.	.	.	.	.	.	.	16g/	16b-\	16ee\	.	.
8CC/	8C/	8C/	8e\J	8g/J	8cc/J	8cc/J	8C/	16a/	16cc\	16ff\	8c/J	.
.	.	.	.	.	.	.	.	16g/JJ	16b-\JJ	16ee\JJ	.	.
8DD/L	8D/L	8D/L	8A\L	8f/L	8ff\L	8ff\L	8D/L	16f/LL	16a/LL	8ff\L	8f/L	.
.	.	.	.	.	.	.	.	16e/	16g/	.	.	.
8AAA/	8AA/	8AA/	16f\LL	16a/LL	8cc\J	8cc\J	8AA/	16f/	16a/	8cc\J	8c/J	.
.	.	.	16e\JJ	16g/JJ	.	.	.	16e/JJ	16g/JJ	.	.	.
8BBB-/	8BB-/	8BB-/	8d\L	16a/LL	8dd\L	8dd/L	8BB-/	8d/L	16a/LL	8dd\L	16A/LL	.
.	.	.	.	16g/	.	.	.	.	16g/	.	16F/JJ	.
8CC/J	8C/J	8C/J	8e\J	16a/	16cc\LL	16cc/LL	8C/J	8e/J	16a/	16cc\LL	8c/J	.
.	.	.	.	16g/JJ	16b-\JJ	16b-/JJ	.	.	16g/JJ	16b-\JJ	.	.
=2	=2	=2	=2	=2	=2	=2	=2	=2	=2	=2	=2	=2
8FFF/L	8FF/L	8FF/L	8c\L	8f/L	16a/LL	16a/LL	8FF/L	8c/L	8f/L	16a/LL	(12c/L	8r
.	.	.	.	.	16g/	16g/	.	.	.	16g/	.	.
.	.	.	.	.	.	.	.	.	.	.	12c/	.
16FF/LL	16F/LL	16F/LL	8A\	8c/J	16f/	16f/	16F/LL	8c/	16a/LL	16f/	.	8c\L
.	.	.	.	.	.	.	.	.	.	.	12c/J)	.
16EE/JJ	16E/JJ	16E/JJ	.	.	16g/JJ	16g/JJ	16E/JJ	.	16g/JJ	16g/JJ	.	.
16FF\LL	16F\LL	16F\LL	8c\	16f/LL	16a/LL	16a/LL	16F\LL	8c/	16f/LL	16a/LL	(12c/L	8f\
16EE\	16E\	16E\	.	16g/	16bn/	16bn/	16E\	.	16g/	16bn/	.	.
.	.	.	.	.	.	.	.	.	.	.	12c/	.
16FF\	16F\	16F\	8f\J	16a/	16a/	16a/	16F\	8f/J	16a/	16a/	.	8a\J
.	.	.	.	.	.	.	.	.	.	.	12c/J)	.
16DD\JJ	16D\JJ	16D\JJ	.	16f/JJ	16b/JJ	16bn/JJ	16D\JJ	.	16f/JJ	16b/JJ	.	.
8EE/L	8E/L	8E/L	16e\LL	8g/L	16cc\LL	16cc/LL	8E/L	16e/LL	8g/L	16cc\LL	(8.c/L	8cc\L
.	.	.	16f\	.	16dd\	16dd/	.	16f/	.	16dd\	.	.
8CC/	8C/	8C/	16g\	8cc/	16ee\	16ee/	8C/	16g/	8cc/	16ee\	.	8g\J
.	.	.	16a\JJ	.	16cc\JJ	16cc/JJ	.	16a/JJ	.	16cc\JJ	16g/Jk)	.
8DD/	8D/	8D/	8f\L	8cc/	16ff\LL	16ff\LL	8D/	8f/L	8cc/	16ff\LL	4r	16g\LL
.	.	.	.	.	16ee\	16ee\	.	.	.	16ee\	.	16c\JJ
8GGG/J	8GG/J	8GG/J	8g\J	8bn/J	16ff\	16ff\	8GG/J	8g/J	8bn/J	16ff\	.	8g\J
.	.	.	.	.	16gg\JJ	16gg\JJ	.	.	.	16gg\JJ	.	.
=3	=3	=3	=3	=3	=3	=3	=3	=3	=3	=3	=3	=3
8CC/L	8C/L	8C/L	8g\L	16cc\LL	16ee\LL	16ee\LL	8C/L	8g/L	16cc\LL	16ee\LL	1r	(12g\L
.	.	.	.	16dd\	16ff\	16ff\	.	.	16dd\	16ff\	.	.
.	.	.	.	.	.	.	.	.	.	.	.	12g\
8EE/	8E/	8E/	8g\	16cc\	16gg\	16gg\	8E/	8g/J	16cc\	16gg\	.	.
.	.	.	.	.	.	.	.	.	.	.	.	12g\J)
.	.	.	.	16dd\JJ	16ff\JJ	16ff\JJ	.	.	16dd\JJ	16ff\JJ	.	.
8CC/	8C/	8C/	8e\	[4ee\	16gg\LL	16gg\LL	8C/	4.cc\	[4ee\	16gg\LL	.	(8.g\L
.	.	.	.	.	16ff\	16ff\	.	.	.	16ff\	.	.
8BBBn/J	8BBn/J	8BBn/J	8d\J	.	16gg\	16gg\	8BBn/J	.	.	16gg\	.	.
.	.	.	.	.	16ff\JJ	16ff\JJ	.	.	.	16ff\JJ	.	16cc\Jk)
8AAA/L	8AA/L	8AA/L	8c\L	8ee\L]	16gg\LL	16gg\LL	8AA/L	.	8ee\L]	16gg\LL	.	2r
.	.	.	.	.	16cc\	16cc\	.	.	.	16cc\	.	.
8DD/	8D/	8D/	8a\	16dd\LL	16ff\	16ff\	8D/	8a/L	16dd\LL	16ff\	.	.
.	.	.	.	16cc\JJ	16ee\JJ	16ee\JJ	.	.	16cc\JJ	16ee\JJ	.	.
8BBB/	8BB/	8BB/	8d\	[4dd\	16ff\LL	16ff\LL	8BB/	8g/	[4dd\	16ff\LL	.	.
.	.	.	.	.	16ee\	16ee\	.	.	.	16ee\	.	.
8AAA/J	8AA/J	8AA/J	8c\J	.	16ff\	16ff\	8AA/J	8a/J	.	16ff\	.	.
.	.	.	.	.	16ee\JJ	16ee\JJ	.	.	.	16ee\JJ	.	.
=4	=4	=4	=4	=4	=4	=4	=4	=4	=4	=4	=4	=4
8GGG/L	8GG/L	8GG/L	8Bn\L	8dd\L]	16ff\LL	16ff\LL	8GG/L	8bn/L	8dd\L]	16ff\LL	1r	1r
.	.	.	.	.	16bn\	16bn\	.	.	.	16bn\	.	.
8CC/	8C/	8C/	8g\	16cc\LL	16ee\	16ee\	8C/	8e/J	16cc\LL	16ee\	.	.
.	.	.	.	16bn\JJ	16dd\JJ	16dd\JJ	.	.	16bn\JJ	16dd\JJ	.	.
8AAA/	8AA/	8AA/	8c\	[4cc\	16ee\LL	16ee\LL	8AA/	4.a/	[4cc\	16ee\LL	.	.
.	.	.	.	.	16dd\	16dd\	.	.	.	16dd\	.	.
8GGG/J	8GG/J	8GG/J	8B-\J	.	16ee\	16ee\	8GG/J	.	.	16ee\	.	.
.	.	.	.	.	16dd\JJ	16dd\JJ	.	.	.	16dd\JJ	.	.
4FFF/	4FF/	4FF/	8A\L	16cc\LL]	16ee\LL	16ee\LL	4FF/	.	16cc\LL]	16ee\LL	.	.
.	.	.	.	16dd\	16a\	16a\	.	.	16dd\	16a\	.	.
.	.	.	8c\	16cc\	16aa\	16aa\	.	8f/L	16cc\	16aa\	.	.
.	.	.	.	16b-\JJ	16gg\JJ	16gg\JJ	.	.	16b-\JJ	16gg\JJ	.	.
8r	8r	8r	8f\	16a/LL	16ff\LL	16ff\LL	8r	8c/	16a/LL	16ff\LL	.	.
.	.	.	.	16g/	16ee\	16ee\	.	.	16g/	16ee\	.	.
[8FF\	[8F\	[8F\	8a\J	16f/	16dd\	16dd\	[8F\	8a/J	16f/	16dd\	.	.
.	.	.	.	16e/JJ	16cc\JJ	16cc\JJ	.	.	16e/JJ	16cc\JJ	.	.
=5	=5	=5	=5	=5	=5	=5	=5	=5	=5	=5	=5	=5
16FF\LL]	16F\LL]	16F\LL]	4g\	4d/	16bn/LL	16bn/LL	16F\LL]	4g/	4d/	16bn/LL	1r	1r
16GG\	16G\	16G\	.	.	16a/	16a/	16G\	.	.	16a/	.	.
16FF\	16F\	16F\	.	.	16g/	16g/	16F\	.	.	16g/	.	.
16EE\JJ	16E\JJ	16E\JJ	.	.	16a/JJ	16a/JJ	16E\JJ	.	.	16a/JJ	.	.
16DD/LL	16D/LL	16D/LL	8r	8r	16b\LL	16bn/LL	16D/LL	8r	8r	16b\LL	.	.
16CC/	16C/	16C/	.	.	16cc\	16cc/	16C/	.	.	16cc\	.	.
16BBBn/	16BBn/	16BBn/	8g\	8ff\	16dd\	16dd/	16BBn/	8g/	8ff\	16dd\	.	.
16AAA/JJ	16AA/JJ	16AA/JJ	.	.	16ee\JJ	16ee/JJ	16AA/JJ	.	.	16ee\JJ	.	.
8GGG/L	8GG/L	8GG/L	8d\L	8bn\L	8.ff\L	8.ff\L	8GG/L	8d/L	8bn\L	8.ff\L	.	.
8CC/	8C/	8C/	16e\LL	16cc\LL	.	.	8C/	16e/LL	16cc\LL	.	.	.
.	.	.	16f\JJ	16dd\JJ	16gg\Jk	16gg\Jk	.	16f/JJ	16dd\JJ	16gg\Jk	.	.
8GG/	8G/	8G/	8g\L	8.bt\L	8.ddT\L	8.ddT/L	8G/	8g/L	8.bt\L	8.ddT\L	.	.
8GGG/J	8GG/J	8GG/J	8d\J	.	.	.	8GG/J	8d/J	.	.	.	.
.	.	.	.	16cc\Jk	16cc\Jk	16cc/Jk	.	.	16cc\Jk	16cc\Jk	.	.
=6	=6	=6	=6	=6	=6	=6	=6	=6	=6	=6	=6	=6
8CC/	8C/	8C/	8e\	8g/	8cc\	8cc/	8C/	8e/	8cc\	8cc\	1r	1r
8r	8r	8r	8r	8r	8r	8r	16c\LL	8r	8e/L	8g/L	.	.
.	.	.	.	.	.	.	16d\JJ	.	.	.	.	.
4r	4r	4r	4r	4r	4r	4r	16c\LL	4r	8f#/	8a/	.	.
.	.	.	.	.	.	.	16B-\	.	.	.	.	.
.	.	.	.	.	.	.	16A\	.	8g/J	8b-/J	.	.
.	.	.	.	.	.	.	16G\JJ	.	.	.	.	.
8r	8r	8r	8r	8r	8r	8r	8F#\L	8r	8a/L	8cc\L	.	.
8DD\L	8D\L	8D\L	8d/L	8f#/L	16dd\LL	16dd\LL	8D\	16dd\LL	8f#/	16dd\LL	.	.
.	.	.	.	.	16ee-\JJ	16ee-\JJ	.	16cc\JJ	.	16ee-\JJ	.	.
8EE\	8E\	8E\	8G/	8g/	16dd\LL	16dd/LL	8E\	8b-/L	8g/	16dd\LL	.	.
.	.	.	.	.	16cc\	16cc/	.	.	.	16cc\	.	.
8FF#\J	8F#\J	8F#\J	8d/J	8a/J	16b-\	16b-/	8F#\J	8a/J	8a/J	16b-\	.	.
.	.	.	.	.	16a\JJ	16a/JJ	.	.	.	16a\JJ	.	.
=7	=7	=7	=7	=7	=7	=7	=7	=7	=7	=7	=7	=7
8GG\	8G\	16G\LL	8d\	8g/	8b-\	8b-/	8G\	8g/	8d/	8b-\	1r	1r
.	.	16D\	.	.	.	.	.	.	.	.	.	.
8r	8r	16G\	8r	8b-/L	8dd\L	8dd\L	8r	8r	8r	8r	.	.
.	.	16A\JJ	.	.	.	.	.	.	.	.	.	.
4r	4r	16G\LL	4r	8g/	8ee\	8een\	4r	4r	4r	4r	.	.
.	.	16F\	.	.	.	.	.	.	.	.	.	.
.	.	16E\	.	8a/J	8ffT\J	8ffT\J	.	.	.	.	.	.
.	.	16D\JJ	.	.	.	.	.	.	.	.	.	.
8r	8r	8C/L	8r	8b-\L	8gg\L	8gg\L	8r	8r	8r	8r	.	.
8AAA/L	8AA/L	8AA/	8e\L	8cc\	16aa\LL	16aa\LL	8AA/L	16a/LL	8cc\L	16aa\LL	.	.
.	.	.	.	.	16bb-\JJ	16bb-\JJ	.	16g/JJ	.	16bb-\JJ	.	.
8BBB-/	8BB-/	8BB-/	8d\	8dd\	16aa\LL	16aa\LL	8BB-/	8f/L	8dd\	16aa\LL	.	.
.	.	.	.	.	16gg\	16gg\	.	.	.	16gg\	.	.
8CC/J	8C/J	8C/J	8a\J	8ee\J	16ff\	16ff\	8C/J	8e/J	8ee\J	16ff\	.	.
.	.	.	.	.	16ee\JJ	16ee\JJ	.	.	.	16ee\JJ	.	.
=8	=8	=8	=8	=8	=8	=8	=8	=8	=8	=8	=8	=8
8DD/L	8D/L	8D/L	8A/L	8a\L	16ff\LL	16ff\LL	8D/L	8d/L	8a\L	16ff\LL	1r	2r
.	.	.	.	.	16dd\	16dd\	.	.	.	16dd\	.	.
8GGG/	8GG/	8GG/	8B-/	16dd\LL	16bb-\	16bb-\	8GG/	8d/	16dd\LL	16bb-\	.	.
.	.	.	.	16ee-\JJ	16ccc\JJ	16ccc\JJ	.	.	16ee-\JJ	16ccc\JJ	.	.
8AAA/	8AA/	8AA/	8c/	16dd\LL	16bb-\LL	16bb-\LL	8AA/	8c/	16dd\LL	16bb-\LL	.	.
.	.	.	.	16cc\	16aa\	16aa\	.	.	16cc\	16aa\	.	.
8BBB-/J	8BB-/J	8BB-/J	8d/J	16b-\	16gg\	16gg\	8BB-/J	8d/J	16b-\	16gg\	.	.
.	.	.	.	16a\JJ	16ff\JJ	16ff\JJ	.	.	16a\JJ	16ff\JJ	.	.
8CC/L	8C/L	8C/L	8G/	8g/	8ee\	8ee\	8C/L	8e/	8g/	8ee\	.	8r
8CCC/J	8CC/J	8CC/J	8E/L	8G/L	8c/L	8c/L	8CC/J	16b-/LL	16ee\LL	16gg\LL	.	8c/
.	.	.	.	.	.	.	.	16a/JJ	16dd\JJ	16ff\JJ	.	.
4r	4r	4r	8G/	8c/	8e/	8e/	4r	16b-/LL	16ee\LL	16gg\LL	.	(12c/L
.	.	.	.	.	.	.	.	16a/	16dd\	16ff\	.	.
.	.	.	.	.	.	.	.	.	.	.	.	12c/
.	.	.	8c/J	8e/J	8g/J	8g/J	.	16b-/	16ee\	16gg\	.	.
.	.	.	.	.	.	.	.	.	.	.	.	12c/J)
.	.	.	.	.	.	.	.	16a/JJ	16dd\JJ	16ff\JJ	.	.
=9	=9	=9	=9	=9	=9	=9	=9	=9	=9	=9	=9	=9
8r	8r	8r	8C\L	8g/L	8b-\L	8b-/L	8r	8b-\L	8ee/L	8gg\L	2r	(12c/L
.	.	.	.	.	.	.	.	.	.	.	.	12F/
8CC\L	8C\L	8C\L	8e\	16a/LL	16cc\LL	16cc/LL	8C/L	16cc\LL	8e/	16cc\LL	.	.
.	.	.	.	.	.	.	.	.	.	.	.	12c/J)
.	.	.	.	16b-/JJ	16dd\JJ	16dd/JJ	.	16b-\JJ	.	16dd\JJ	.	.
8DD\	8D\	8D\	8f\	8a/L	16cc/LL	16cc/LL	8D/	8a/L	8f/	16cc\LL	.	(12c/L
.	.	.	.	.	16b-/	16b-/	.	.	.	16b-\	.	.
.	.	.	.	.	.	.	.	.	.	.	.	12c/
8EE\J	8E\J	8E\J	8g\J	8g/J	16a/	16a/	8E/J	8g/J	8g/J	16a\	.	.
.	.	.	.	.	.	.	.	.	.	.	.	12c/J)
.	.	.	.	.	16g/JJ	16g/JJ	.	.	.	16g\JJ	.	.
8FF/L	8F/L	8F/L	8c\L	8f/L	8a/L	8a/L	8F/L	8f\L	8c\L	8a\L	8r	(8.c/L
8FFF/J	8FF/J	8FF/J	8A\	8c/	8f/	8f/	8FF/J	16ee-\LL	16aa\LL	16ccc\LL	8F/	.
.	.	.	.	.	.	.	.	16dd\JJ	16gg\JJ	16bb-\JJ	.	16f/Jk)
4r	4r	4r	8c\	8f/	8a/	8a/	4r	16ee-\LL	16aa\LL	16ccc\LL	(12F/L	4r
.	.	.	.	.	.	.	.	16dd\	16gg\	16bb-\	.	.
.	.	.	.	.	.	.	.	.	.	.	12F/	.
.	.	.	8f\J	8a/J	8cc/J	8cc/J	.	16ee-\	16aa\	16ccc\	.	.
.	.	.	.	.	.	.	.	.	.	.	12F/J)	.
.	.	.	.	.	.	.	.	16dd\JJ	16gg\JJ	16bb-\JJ	.	.
=10	=10	=10	=10	=10	=10	=10	=10	=10	=10	=10	=10	=10
8r	8r	8r	8F\L	8cc\L	8ee-\L	8ee-\L	8r	8ee-\L	8aa\L	8ccc\L	(12F/L	1r
.	.	.	.	.	.	.	.	.	.	.	12C/	.
8FF\L	8F\L	8F\L	8a\	16dd\LL	16ff\LL	16ff\LL	8F\L	16ff\LL	8a\	16ff\LL	.	.
.	.	.	.	.	.	.	.	.	.	.	12F/J)	.
.	.	.	.	16ee-\JJ	16gg\JJ	16gg\JJ	.	16ee-\JJ	.	16gg\JJ	.	.
8GG\	8G\	8G\	8b-\	8dd\L	16ff\LL	16ff\LL	8G\	8dd\L	8b-\	16ff\LL	(12F/L	.
.	.	.	.	.	16ee-\	16ee-\	.	.	.	16ee-\	.	.
.	.	.	.	.	.	.	.	.	.	.	12F/	.
8AA\J	8A\J	8A\J	8cc\J	8cc\J	16dd\	16dd\	8A\J	8cc\J	8cc\J	16dd\	.	.
.	.	.	.	.	.	.	.	.	.	.	12F/J)	.
.	.	.	.	.	16cc\JJ	16cc\JJ	.	.	.	16cc\JJ	.	.
16BB-\LL	16B-\LL	16B-\LL	8f\L	8b-\L	8dd\L	8dd\L	16B-\LL	8b-\L	8f\L	8dd\L	(8.F/L	.
16FF\	16F\	16F\	.	.	.	.	16F\	.	.	.	.	.
16BB-\	16B-\	16B-\	16b-\LL	16dd\LL	16gg\LL	16gg\LL	16B-\	16b-\LL	16dd\LL	16gg\LL	.	.
16AA\JJ	16A\JJ	16A\JJ	16cc\JJ	16ee-\JJ	16aa\JJ	16aa\JJ	16A\JJ	16cc\JJ	16ee-\JJ	16aa\JJ	16c/Jk)	.
16BB-\LL	16B-\LL	16B-\LL	8b-\L	8dd\L	16gg\LL	16gg\LL	16B-\LL	8b-/L	8dd\L	16gg\LL	4r	.
16AA\	16A\	16A\	.	.	16ff\	16ff\	16A\	.	.	16ff\	.	.
16BB-\	16B-\	16B-\	8g\J	8b-\J	16ee\	16een\	16B-\	8g/J	8b-\J	16ee\	.	.
16AA\JJ	16A\JJ	16A\JJ	.	.	16dd\JJ	16dd\JJ	16A\JJ	.	.	16dd\JJ	.	.
=11	=11	=11	=11	=11	=11	=11	=11	=11	=11	=11	=11	=11
16BB-\LL	16B-\LL	16B-\LL	8.e\L	8.g/L	8.cc\L	8.cc/L	16B-\LL	8.e/L	8.g/L	8.cc\L	2r	1r
16C\	16c\	16c\	.	.	.	.	16c\	.	.	.	.	.
16BB-\	16B-\	16B-\	.	.	.	.	16B-\	.	.	.	.	.
16AA\JJ	16A\JJ	16A\JJ	16f\Jk	16a/Jk	16dd\Jk	16dd/Jk	16A\JJ	16f/Jk	16a/Jk	16dd\Jk	.	.
16GG\LL	16G\LL	16G\LL	16g\LL	16b-/LL	16ee\LL	16ee\LL	16G\LL	16g/LL	16b-/LL	16ee\LL	.	.
16FF\	16F\	16F\	16a\	16a/	16ff\	16ff\	16F\	16a/	16a/	16ff\	.	.
16EE\	16E\	16E\	16b-\	16g/	16gg\	16gg\	16E\	16b-/	16g/	16gg\	.	.
16DD\JJ	16D\JJ	16D\JJ	16g\JJ	16f/JJ	16aa\JJ	16aa\JJ	16D\JJ	16g/JJ	16f/JJ	16aa\JJ	.	.
8CC\L	8C\L	8C\L	[4cc\	8e/L	16bb-\LL	16bb-\LL	8C\L	[4cc\	8e/L	16bb-\LL	4r	.
.	.	.	.	.	32ccc\LLL	32ccc\LLL	.	.	.	32ccc\LLL	.	.
.	.	.	.	.	32bb-\	32bb-\	.	.	.	32bb-\	.	.
8FF\	8F\	8F\	.	16f/LL	32aa\	32aa\	8F\	.	16f/LL	32aa\	.	.
.	.	.	.	.	32bb-\JJJ	32bb-\JJJ	.	.	.	32bb-\JJJ	.	.
.	.	.	.	16g/JJ	16ccc\JJ	16ccc\JJ	.	.	16g/JJ	16ccc\JJ	.	.
8C\	8c\	8c\	16cc\LL]	8.et/L	8.ggT\L	8.ggT\L	8c\	16cc\LL]	8.et/L	8.ggT\L	8r	.
.	.	.	16b-\	.	.	.	.	16b-\	.	.	.	.
8CC\J	8C\J	8C\J	16cc\	.	.	.	8C\J	16cc\	.	.	8c/	.
.	.	.	16b-\JJ	16f/Jk	16ff\Jk	16ff\Jk	.	16b-\JJ	16f/Jk	16ff\Jk	.	.
=12	=12	=12	=12	=12	=12	=12	=12	=12	=12	=12	=12	=12
16DD/LL	16D/LL	16D/LL	8a\L	8f/L	16ff\LL	16ff\LL	16D/LL	8a/L	8f/L	16ff\LL	(12f\L	8r
16CC/	16C/	16C/	.	.	16ee\	16ee\	16C/	.	.	16ee\	.	.
.	.	.	.	.	.	.	.	.	.	.	12f\	.
16DD/	16D/	16D/	8f\	8a/	16ff\	16ff\	16D/	8f/	8a/	16ff\	.	8c/
.	.	.	.	.	.	.	.	.	.	.	12f\J)	.
16CC/JJ	16C/JJ	16C/JJ	.	.	16ee\JJ	16ee\JJ	16C/JJ	.	.	16ee\JJ	.	.
16BBB-/LL	16BB-/LL	16BB-/LL	8f\	8b-/	16dd\LL	16dd/LL	16BB-/LL	8f/	8b-/	16dd\LL	(12f/L	(12f\L
16AAA/	16AA/	16AA/	.	.	16cc\	16cc/	16AA/	.	.	16cc\	.	.
.	.	.	.	.	.	.	.	.	.	.	12c/	12f\
16BBB-/	16BB-/	16BB-/	8f\J	8d/J	16dd\	16dd/	16BB-/	8f/J	8d/J	16dd\	.	.
.	.	.	.	.	.	.	.	.	.	.	12f/J)	12f\J)
16AAA/JJ	16AA/JJ	16AA/JJ	.	.	16cc\JJ	16cc/JJ	16AA/JJ	.	.	16cc\JJ	.	.
8GGG/L	8GG/L	8GG/L	8g\L	16d/LL	16b-\LL	16b-/LL	8GG/L	8g/L	16d/LL	16b-\LL	(12c/L	(12f/L
.	.	.	.	16e/	32cc\LLL	32cc/LLL	.	.	16e/	32cc\LLL	.	.
.	.	.	.	.	.	.	.	.	.	.	12A/	12c/
.	.	.	.	.	32b-\	32b-/	.	.	.	32b-\	.	.
8FFF/	8FF/	8FF/	8c\J	16f/	32a\	32a/	8FF/	8c/J	16f/	32a\	.	.
.	.	.	.	.	32b-\JJJ	32b-/JJJ	.	.	.	32b-\JJJ	.	.
.	.	.	.	.	.	.	.	.	.	.	12c/J)	12f/J)
.	.	.	.	16g/JJ	16cc\JJ	16cc/JJ	.	.	16g/JJ	16cc\JJ	.	.
8CC/	8C/	8C/	8.c\L	8.et/L	8.gT/L	8.gT/L	8C/	8.c/L	8.et/L	8.gT/L	(12A/L	(12c/L
.	.	.	.	.	.	.	.	.	.	.	12F/	12A/
8CCC/J	8CC/J	8CC/J	.	.	.	.	8CC/J	.	.	.	.	.
.	.	.	.	.	.	.	.	.	.	.	12A/J)	12c/J)
.	.	.	16c\Jk	16f/Jk	16f/Jk	16f/Jk	.	16c/Jk	16f/Jk	16f/Jk	.	.
=13	=13	=13	=13	=13	=13	=13	=13	=13	=13	=13	=13	=13
4FFF/	4FF/	4FF/	4A\	4f/	4f/	4f/	4FF/	8c/	8f/	8f/	8F/	8A/
.	.	.	.	.	.	.	.	8c/L	8c/L	8f/L	16a\LL	16cc\LL
.	.	.	.	.	.	.	.	.	.	.	16g\JJ	16b-\JJ
4r	4r	4r	8r	8r	8r	8r	4r	8c/	8f/	8a/	16a\LL	16cc\LL
.	.	.	.	.	.	.	.	.	.	.	16g\	16b-\
.	.	.	8c\	8c/	8c/	8cc/	.	8e/J	8a/J	8cc/J	16a\	16cc\
.	.	.	.	.	.	.	.	.	.	.	16g\JJ	16b-\JJ
2r	2r	2r	8d\L	8d/L	8d/L	8dd/L	2r	8a/L	8dd\L	8ff\L	16f\LL	16a\LL
.	.	.	.	.	.	.	.	.	.	.	16g\	16b-\
.	.	.	8A\	8A/	8A/	8a/	.	8f/	8cc\	8cc\J	16a\	16cc\
.	.	.	.	.	.	.	.	.	.	.	16b-\JJ	16dd\JJ
.	.	.	8B-\	8B-/	8B-/	8b-/	.	8f/	8b-\	8dd\L	8g\L	16b-\LL
.	.	.	.	.	.	.	.	.	.	.	.	16a\
.	.	.	8c\J	8c/J	8c/J	8cc/J	.	8e/J	8g\J	16cc\LL	8c\J	16b-\
.	.	.	.	.	.	.	.	.	.	16b-\JJ	.	16g\JJ
=14	=14	=14	=14	=14	=14	=14	=14	=14	=14	=14	=14	=14
8r	8r	8r	8F\L	8f/L	8f\L	8f/L	8r	8c/L	8f/L	8a\L	8f/L	8a\L
8FFF/L	8FF/L	8FF/L	16a\LL	16cc/LL	16ff\LL	16ff/LL	8FF/L	16a/LL	16cc/LL	16ff\LL	8A/J	8c\
.	.	.	16b-\JJ	16dd/JJ	16gg\JJ	16gg/JJ	.	16g/JJ	16b-/JJ	16ee\JJ	.	.
8AAA/	8AA/	8AA/	16a\LL	16cc\LL	16ff\LL	16ff\LL	8AA/	16a/LL	16cc\LL	16ff\LL	8c/L	8f\
.	.	.	16b-\	16dd\	16gg\	16gg\	.	16g/	16b-\	16ee\	.	.
8CC/J	8C/J	8C/J	16a\	16cc\	16ff\	16ff\	8C/J	16a/	16cc\	16ff\	16c/LL	8gT\J
.	.	.	16b-\JJ	16dd\JJ	16gg\JJ	16gg\JJ	.	16g/JJ	16b-\JJ	16ee\JJ	16c/JJ	.
8FF/L	8F/L	8F/L	4a\	4cc\	4ff\	4ff\	8F/L	4a/	4cc\	4ff\	8c/L	16a\LL
.	.	.	.	.	.	.	.	.	.	.	.	16b-\
8DD/	8D/	8D/	.	.	.	.	8C/	.	.	.	16f/LL	16a\
.	.	.	.	.	.	.	.	.	.	.	16g/JJ	16b-\JJ
8AAA/	8AA/	8AA/	4r	4r	4r	4r	8AA/	4r	4r	4r	16a\LL	16cc\LL
.	.	.	.	.	.	.	.	.	.	.	16g\	16b-\
8BBB-/J	8BB-/J	8BB-/J	.	.	.	.	8BB-/J	.	.	.	16f\	16a\
.	.	.	.	.	.	.	.	.	.	.	16g\JJ	16b-\JJ
=15	=15	=15	=15	=15	=15	=15	=15	=15	=15	=15	=15	=15
4CC/	4C/	4C/	8r	8r	8r	8r	4C/	8r	8r	8r	4c/	4g\
.	.	.	16ee\LL	16gg\LL	16ccc\LL	16ccc\LL	.	8e/L	8g\L	8cc\L	.	.
.	.	.	16dd\JJ	16ff\JJ	16bbn\JJ	16bbn\JJ	.	.	.	.	.	.
8r	8r	8r	16ee\LL	16gg\LL	16ccc\LL	16ccc\LL	8r	8g/	8cc\	8ee\	4r	4r
.	.	.	16dd\	16ff\	16bb\	16bbn\	.	.	.	.	.	.
8GGG/	8GG/	8GG/	16ee\	16gg\	16ccc\	16ccc\	8GG/	8bn/J	8dd\J	8gg\J	.	.
.	.	.	16dd\JJ	16ff\JJ	16bb\JJ	16bbn\JJ	.	.	.	.	.	.
8AAA/L	8AA/L	8AA/L	16cc\LL	16ee\LL	8ccc\L	8ccc\L	8AA/L	8e/L	8cc\L	8ccc\L	2r	2r
.	.	.	16bn\	16dd\	.	.	.	.	.	.	.	.
8EEE/	8EE/	8EE/	16cc\	16ee\	8gg\J	8gg\J	8EE/	16cc/LL	16ee\LL	8gg\J	.	.
.	.	.	16b\JJ	16dd\JJ	.	.	.	16b/JJ	16dd\JJ	.	.	.
8FFF/	8FF/	8FF/	8a\L	16ee\LL	8aa\L	8aa\L	8FF/	8a/L	16ee\LL	8aa\L	.	.
.	.	.	.	16dd\	.	.	.	.	16dd\	.	.	.
8GGG/J	8GG/J	8GG/J	8b\J	16ee\	16gg\LL	16gg\LL	8GG/J	8b/J	16ee\	16gg\LL	.	.
.	.	.	.	16dd\JJ	16ff\JJ	16ff\JJ	.	.	16dd\JJ	16ff\JJ	.	.
=16	=16	=16	=16	=16	=16	=16	=16	=16	=16	=16	=16	=16
8CCC/L	8CC/L	8CC/L	16g\LL	16cc\LL	16ee\LL	16ee\LL	8CC/L	4g/	4cc\	4ee\	8r	8r
.	.	.	16f\	16bn\	16dd\	16dd\	.	.	.	.	.	.
8GGG/	8GG/	8GG/	16e\	16cc\	16cc\	16cc\	8GG/	.	.	.	16c/LL	16g\LL
.	.	.	16d\JJ	16b\JJ	16dd\JJ	16dd\JJ	.	.	.	.	16c/JJ	16f\JJ
8CC/	8C/	8C/	8c\L	16cc\LL	16ee\LL	16ee\LL	8C/	8r	8r	8r	8c/L	16g\LL
.	.	.	.	16dd\JJ	16ff\JJ	16ff\JJ	.	.	.	.	.	16a\
8CCC/J	8CC/J	8CC/J	8cc\J	[8ee\J	[8gg\J	[8gg\J	8CC/J	8g/	8cc\	8ee\	8c/J	16b-\
.	.	.	.	.	.	.	.	.	.	.	.	16g\JJ
8FFF/L	8FF/L	8FF/L	2cc\	8ee\L]	8gg\L]	8gg\L]	8FF/L	4f/	4a/	4cc\	8c/L	16a\LL
.	.	.	.	.	.	.	.	.	.	.	.	16g\
8AAA/	8AA/	8AA/	.	16dd\LL	16ff\LL	16ff\LL	8AA/	.	.	.	8c/J	16a\
.	.	.	.	16cc\JJ	16ee\JJ	16ee\JJ	.	.	.	.	.	16g\JJ
8DD/	8D/	8D/	.	[4dd\	[4ff\	[4ff\	8D/	8r	8r	8r	16f\LL	16a\LL
.	.	.	.	.	.	.	.	.	.	.	16g\	16bn\
8DDD/J	8DD/J	8DD/J	.	.	.	.	8DD/J	8a/	8dd\	8ff\	16a\	16cc\
.	.	.	.	.	.	.	.	.	.	.	16f\JJ	16a\JJ
=17	=17	=17	=17	=17	=17	=17	=17	=17	=17	=17	=17	=17
8GGG/L	8GG/L	8GG/L	4bn\	2dd\]	8ff\L]	8ff\L]	8GG/L	4g/	4bn\	4dd\	16g\LL	16bn\LL
.	.	.	.	.	.	.	.	.	.	.	16f\	16a\
8BBBn/	8BBn/	8BBn/	.	.	16ee\LL	16ee\LL	8BBn/	.	.	.	16g\	16b\
.	.	.	.	.	16dd\JJ	16dd\JJ	.	.	.	.	16f\JJ	16a\JJ
8EE/	8E/	8E/	[4g\	.	[4ee\	[4ee\	8E/	8r	8r	8r	16g\LL	16b\LL
.	.	.	.	.	.	.	.	.	.	.	16a\	16cc\
8EEE/J	8EE/J	8EE/J	.	.	.	.	8EE/J	8bn\	8ee\	8gg\	16bn\	16dd\
.	.	.	.	.	.	.	.	.	.	.	16g\JJ	16b\JJ
8AAA/L	8AA/L	8AA/L	16g\LL]	16cc\LL	16ee\LL]	16ee\LL]	8AA/L	16a/LL	16cc\LL	8.ee\L	8.a\L	8.cc\L
.	.	.	16e\	16bn\	16dd\	16dd\	.	16b/	16b\	.	.	.
8FF/	8F/	8F/	16a\	16cc\	16ee\	16ee\	8F/	16a/	16cc\	.	.	.
.	.	.	16g\JJ	16dd\JJ	16ff\JJ	16ff\JJ	.	16g/JJ	16dd\JJ	16ff\Jk	16b\Jk	16dd\Jk
8GG/	8G/	8G/	16f\LL	8g/L	8.ddT\L	8.ddT/L	8G/	16f/LL	8g/L	8.ddT\L	8.g\L	8.bt\L
.	.	.	16e\	.	.	.	.	16e/	.	.	.	.
8GGG/J	8GG/J	8GG/J	16f\	8g/J	.	.	8GG/J	16f/	8g/J	.	.	.
.	.	.	16d\JJ	.	16cc\Jk	16cc/Jk	.	16d/JJ	.	16cc\Jk	16g\Jk	16cc\Jk
=18	=18	=18	=18	=18	=18	=18	=18	=18	=18	=18	=18	=18
4CC/	4C/	8C/	4e\	8g/	8cc\	8cc/	4C/	4e/	4g/	4cc\	4g\	4cc\
.	.	16c\LL	.	8e/L	8g/L	8g/L	.	.	.	.	.	.
.	.	16d\JJ	.	.	.	.	.	.	.	.	.	.
4r	4r	16c\LL	4r	8f#/	8a/	8a/	4r	4r	4r	4r	4r	4r
.	.	16B-\	.	.	.	.	.	.	.	.	.	.
.	.	16A\	.	8g/J	8b-/J	8b-/J	.	.	.	.	.	.
.	.	16G\JJ	.	.	.	.	.	.	.	.	.	.
8r	8r	8F#\L	8r	8a/L	8cc\L	8cc/L	2r	2r	2r	2r	2r	2r
8DD\L	8D\L	8D\	16d\LL	8f#/	16dd\LL	16dd/LL	.	.	.	.	.	.
.	.	.	16c\JJ	.	16ee-\JJ	16ee-/JJ	.	.	.	.	.	.
8EE\	8E\	8E\	8B-/L	8g/	16dd\LL	16dd/LL	.	.	.	.	.	.
.	.	.	.	.	16cc\	16cc/	.	.	.	.	.	.
8FF#\J	8F#\J	8F#\J	8A/J	8a/J	16b-\	16b-/	.	.	.	.	.	.
.	.	.	.	.	16a\JJ	16a/JJ	.	.	.	.	.	.
=19	=19	=19	=19	=19	=19	=19	=19	=19	=19	=19	=19	=19
4GG\	4G\	4G\	4G/	4d/	4b-\	4b-/	8r	2r	8r	8r	1r	1r
.	.	.	.	.	.	.	16G\LL	.	8dd\L	8dd\L	.	.
.	.	.	.	.	.	.	16A\JJ	.	.	.	.	.
4r	4r	4r	4r	4r	4r	4r	16G\LL	.	8cc#\	8ee\	.	.
.	.	.	.	.	.	.	16F\	.	.	.	.	.
.	.	.	.	.	.	.	16E\	.	8dd\J	8ff\J	.	.
.	.	.	.	.	.	.	16D\JJ	.	.	.	.	.
8r	8r	8r	2r	2r	2r	2r	8C#/L	8r	8ee\L	8gg\L	.	.
8AAA/L	8AA/L	8AA/L	.	.	.	.	8AA/	16a/LL	8cc#\	16aa\LL	.	.
.	.	.	.	.	.	.	.	16g/JJ	.	16bb-\JJ	.	.
8BBBn/	8BBn/	8BBn/	.	.	.	.	8BBn/	8f/L	8dd\	16aa\LL	.	.
.	.	.	.	.	.	.	.	.	.	16gg\	.	.
8CC#/J	8C#/J	8C#/J	.	.	.	.	8C#/J	8e/J	8ee\J	16ff\	.	.
.	.	.	.	.	.	.	.	.	.	16ee\JJ	.	.
=20	=20	=20	=20	=20	=20	=20	=20	=20	=20	=20	=20	=20
16DD\LL	16D\LL	16D/LL	1r	1r	1r	1r	16D/LL	4d/	4a/	4ff\	8r	8r
16EE\	16E\	16E/	.	.	.	.	16E/	.	.	.	.	.
16DD\	16D\	16D/	.	.	.	.	16D/	.	.	.	8A/L	8f\L
16CC\JJ	16C\JJ	16C/JJ	.	.	.	.	16C/JJ	.	.	.	.	.
16BBB-/LL	16BB-/LL	16BB-/LL	.	.	.	.	16BB-/LL	4r	4r	4r	8c/	8g\
16AAA/	16AA/	16AA/	.	.	.	.	16AA/	.	.	.	.	.
16GGG/	16GG/	16GG/	.	.	.	.	16GG/	.	.	.	8f/J	8a\J
16FFF/JJ	16FF/JJ	16FF/JJ	.	.	.	.	16FF/JJ	.	.	.	.	.
8EEE/L	8EE/L	8EE/L	.	.	.	.	8EE/L	2r	2r	2r	8g\L	8b-\L
8CC/	8C/	8C/	.	.	.	.	8C/	.	.	.	16a\LL	16cc\LL
.	.	.	.	.	.	.	.	.	.	.	16b-\JJ	16dd\JJ
8DD/	8D/	8D/	.	.	.	.	8D/	.	.	.	16a\LL	16cc\LL
.	.	.	.	.	.	.	.	.	.	.	16g\	16b-\
8EE/J	8E/J	8E/J	.	.	.	.	8E/J	.	.	.	16f\	16a\
.	.	.	.	.	.	.	.	.	.	.	16c\JJ	16g\JJ
=21	=21	=21	=21	=21	=21	=21	=21	=21	=21	=21	=21	=21
8FF/L	8F/L	8F/L	8r	16r	16r	16r	8F/L	8r	16r	16r	4f\	4a\
.	.	.	.	16a\LL	16cc\LL	16cc\LL	.	.	16a\LL	16cc\LL	.	.
8DD/	8D/	8D/	8f\L	16b-\	16ff\	16ff\	8D/	8f/	16b-\	16ff\	.	.
.	.	.	.	16cc\JJ	16ee-\JJ	16ee-\JJ	.	.	16cc\JJ	16ee-\JJ	.	.
8BBB-/	8BB-/	8BB-/	8d\	[4dd\	16ff\LL	16ff\LL	8BB-/	4.b-\	[4dd\	16ff\LL	4r	4r
.	.	.	.	.	16ee-\	16ee-\	.	.	.	16ee-\	.	.
8AAA/J	8AA/J	8AA/J	8c\J	.	16ff\	16ff\	8AA/J	.	.	16ff\	.	.
.	.	.	.	.	16ee-\JJ	16ee-\JJ	.	.	.	16ee-\JJ	.	.
8GGG/L	8GG/L	8GG/L	8B-\L	8dd\L]	16ff\LL	16ff\LL	8GG/L	.	8dd\L]	16ff\LL	2r	2r
.	.	.	.	.	16b-\	16b-\	.	.	.	16b-\	.	.
8CC/	8C/	8C/	8g\	16cc\LL	16ee-\	16ee-\	8C/	8g/L	16cc\LL	16ee-\	.	.
.	.	.	.	16b-\JJ	16dd\JJ	16dd\JJ	.	.	16b-\JJ	16dd\JJ	.	.
8AAA/	8AA/	8AA/	8c\	[4cc\	16ee-\LL	16ee-\LL	8AA/	8f/	[4cc\	16ee-\LL	.	.
.	.	.	.	.	16dd\	16dd\	.	.	.	16dd\	.	.
8GGG/J	8GG/J	8GG/J	8B-\J	.	16ee-\	16ee-\	8GG/J	8g/J	.	16ee-\	.	.
.	.	.	.	.	16dd\JJ	16dd\JJ	.	.	.	16dd\JJ	.	.
=22	=22	=22	=22	=22	=22	=22	=22	=22	=22	=22	=22	=22
8FFF/L	8FF/L	8FF/L	8A\L	8cc\L]	16ee-\LL	16ee-/LL	8FF/L	8a/L	8cc\L]	16ee-\LL	1r	1r
.	.	.	.	.	16a\	16a/	.	.	.	16a\	.	.
8BBB-/	8BB-/	8BB-/	8f\	16b-\LL	16dd\	16dd/	8BB-/	8d/J	16b-\LL	16dd\	.	.
.	.	.	.	16a\JJ	16cc\JJ	16cc/JJ	.	.	16a\JJ	16cc\JJ	.	.
8GGG/	8GG/	8GG/	8B-\	[4b-\	16dd\LL	16dd/LL	8GG/	4.g/	[4b-\	16dd\LL	.	.
.	.	.	.	.	16cc\	16cc/	.	.	.	16cc\	.	.
8FFF/J	8FF/J	8FF/J	8A\J	.	16dd\	16dd/	8FF/J	.	.	16dd\	.	.
.	.	.	.	.	16cc\JJ	16cc/JJ	.	.	.	16cc\JJ	.	.
4EEE-/	4EE-/	4EE-/	8G\L	16b-\LL]	16dd\LL	16dd/LL	4EE-/	.	16b-\LL]	16dd\LL	.	.
.	.	.	.	16cc\	16g\	16g/	.	.	16cc\	16g\	.	.
.	.	.	8B-\	16b-\	16gg\	16gg/	.	8e-/L	16b-\	16gg\	.	.
.	.	.	.	16a-\JJ	16ff\JJ	16ff/JJ	.	.	16a-\JJ	16ff\JJ	.	.
8r	8r	8r	8e-\	16g/LL	16ee-\LL	16ee-/LL	8r	8b-/	16g/LL	16ee-\LL	.	.
.	.	.	.	16f/	16dd\	16dd/	.	.	16f/	16dd\	.	.
[8EE-\	[8E-\	[8E-\	8g\J	16e-/	16cc\	16cc/	[8E-\	8g/J	16e-/	16cc\	.	.
.	.	.	.	16d/JJ	16b-\JJ	16b-/JJ	.	.	16d/JJ	16b-\JJ	.	.
=23	=23	=23	=23	=23	=23	=23	=23	=23	=23	=23	=23	=23
16EE-\LL]	16E-\LL]	16E-\LL]	4f\	4c/	16a/LL	16a/LL	16E-\LL]	4f/	4c/	16a/LL	1r	1r
16FF\	16F\	16F\	.	.	16g/	16g/	16F\	.	.	16g/	.	.
16EE-\	16E-\	16E-\	.	.	16f/	16f/	16E-\	.	.	16f/	.	.
16DD\JJ	16D\JJ	16D\JJ	.	.	16g/JJ	16g/JJ	16D\JJ	.	.	16g/JJ	.	.
16CC/LL	16C/LL	16C/LL	8r	8r	16a\LL	16a/LL	16C/LL	8r	8r	16a\LL	.	.
16BBB-/	16BB-/	16BB-/	.	.	16b-\	16b-/	16BB-/	.	.	16b-\	.	.
16AAA/	16AA/	16AA/	8f\	8ee-\	16cc\	16cc/	16AA/	8f/	8ee-\	16cc\	.	.
16GGG/JJ	16GG/JJ	16GG/JJ	.	.	16dd\JJ	16dd/JJ	16GG/JJ	.	.	16dd\JJ	.	.
8FFF/L	8FF/L	8FF/L	8c\L	8a\L	8.ee-\L	8.ee-\L	8FF/L	8c/L	8a/L	8.ee-\L	.	.
8BBB-/	8BB-/	8BB-/	16d\LL	16b-\LL	.	.	8BB-/	16d/LL	16b-/LL	.	.	.
.	.	.	16e-\JJ	16cc\JJ	16ff\Jk	16ff\Jk	.	16e-/JJ	16cc/JJ	16ff\Jk	.	.
8FF/	8F/	8F/	8f\L	8.at/L	8.ccT\L	8.ccT/L	8F/	8f/L	8.at/L	8.ccT\L	.	.
8FFF/J	8FF/J	8FF/J	8c\J	.	.	.	8FF/J	8c/J	.	.	.	.
.	.	.	.	16f/Jk	16b-\Jk	16b-/Jk	.	.	16b-/Jk	16b-\Jk	.	.
=24	=24	=24	=24	=24	=24	=24	=24	=24	=24	=24	=24	=24
8BBB-/	8BB-/	8BB-/	4d\	4f/	4b-\	4b-/	8BB-/	4d/	4b-\	4b-\	8r	8r
8BB-\L	8B-\L	8B-\L	.	.	.	.	8B-\L	.	.	.	16b-\LL	16dd\LL
.	.	.	.	.	.	.	.	.	.	.	16a\JJ	16cc\JJ
8C\	8c\	8c\	4r	4r	4r	4r	8c\	4r	4r	4r	16b-\LL	16dd\LL
.	.	.	.	.	.	.	.	.	.	.	16cc\	16ee-\
8D\J	8d\J	8d\J	.	.	.	.	8d\J	.	.	.	16b-\	16dd\
.	.	.	.	.	.	.	.	.	.	.	16a\JJ	16cc\JJ
8E-\L	8e-\L	8e-\L	2r	2r	2r	2r	8e-\L	2r	2r	2r	8g\L	8b-\L
8AA\	8A\	8A\	.	.	.	.	8A\	.	.	.	16a\LL	16cc\LL
.	.	.	.	.	.	.	.	.	.	.	16g\JJ	16b-\JJ
8BB-\	8B-\	8B-\	.	.	.	.	8B-\	.	.	.	16a\LL	16cc\LL
.	.	.	.	.	.	.	.	.	.	.	16b-\	16dd\
8C\J	8c\J	8c\J	.	.	.	.	8c\J	.	.	.	16a\	16cc\
.	.	.	.	.	.	.	.	.	.	.	16g\JJ	16b-\JJ
=25	=25	=25	=25	=25	=25	=25	=25	=25	=25	=25	=25	=25
8D\L	8d\L	8d\L	1r	1r	1r	1r	8d\L	1r	8r	8r	4f\	4a\
8GG\	8G\	8G\	.	.	.	.	8G\	.	16b-/LL	16gg\LL	.	.
.	.	.	.	.	.	.	.	.	16a/JJ	16ff\JJ	.	.
8AA\	8A\	8A\	.	.	.	.	8A\	.	16b-/LL	16gg\LL	4r	4r
.	.	.	.	.	.	.	.	.	16cc/	16aa\	.	.
8BB-\J	8B-\J	8B-\J	.	.	.	.	8B-\J	.	16b-/	16gg\	.	.
.	.	.	.	.	.	.	.	.	16a/JJ	16ff\JJ	.	.
8C\L	8c\L	8c\L	.	.	.	.	8c\L	.	8g/L	8ee\L	2r	2r
8FF\	8F\	8F\	.	.	.	.	8F\	.	16a/LL	16ff\LL	.	.
.	.	.	.	.	.	.	.	.	16g/JJ	16ee\JJ	.	.
8GG\	8G\	8G\	.	.	.	.	8G\	.	16a/LL	16ff\LL	.	.
.	.	.	.	.	.	.	.	.	16b-/	16gg\	.	.
8AA\J	8A\J	8A\J	.	.	.	.	8A\J	.	16a/	16ff\	.	.
.	.	.	.	.	.	.	.	.	16g/JJ	16ee\JJ	.	.
=26	=26	=26	=26	=26	=26	=26	=26	=26	=26	=26	=26	=26
8BB-\L	8B-\L	8B-\L	1r	8r	8r	8r	8B-\L	1r	4f/	4dd\	1r	1r
8EE\	8E\	8E\	.	16g/LL	16ee\LL	16ee\LL	8E\	.	.	.	.	.
.	.	.	.	16f/JJ	16dd\JJ	16dd\JJ	.	.	.	.	.	.
8FF\	8F\	8F\	.	16g/LL	16ee\LL	16ee\LL	8F\	.	4r	4r	.	.
.	.	.	.	16a/	16ff\	16ff\	.	.	.	.	.	.
8GG\J	8G\J	8G\J	.	16g/	16ee\	16ee\	8G\J	.	.	.	.	.
.	.	.	.	16f/JJ	16dd\JJ	16dd\JJ	.	.	.	.	.	.
8AA\L	8A\L	8A\L	.	16e/LL	16cc#\LL	16cc#\LL	8A\L	.	2r	2r	.	.
.	.	.	.	16d/	16dd\	16dd\	.	.	.	.	.	.
8EE\	8E\	8E\	.	16c#/	16ee\	16ee\	8E\	.	.	.	.	.
.	.	.	.	16d/JJ	16ff\JJ	16ff\JJ	.	.	.	.	.	.
8CC#\	8C#\	8C#\	.	16e/LL	16gg\LL	16gg\LL	8C#\	.	.	.	.	.
.	.	.	.	16d/	16ff\	16ff\	.	.	.	.	.	.
8AAA\J	8AA\J	8AA\J	.	16e/	16gg\	16gg\	8AA\J	.	.	.	.	.
.	.	.	.	16c#/JJ	16ee\JJ	16ee\JJ	.	.	.	.	.	.
=27	=27	=27	=27	=27	=27	=27	=27	=27	=27	=27	=27	=27
4DD\	4D\	4D\	8r	8d/	8ff\	8ff\	4D\	8r	8r	8r	2r	8r
.	.	.	8F/L	8A/L	8d/L	8d/L	.	16f/LL	16a/LL	16dd\LL	.	(16A/LL
.	.	.	.	.	.	.	.	16e/JJ	16g/JJ	16cc#\JJ	.	16A/JJ)
8r	8r	8r	8A/	8d/	8f/	8f/	8r	16f/LL	16a/LL	16dd\LL	.	(16A/LL
.	.	.	.	.	.	.	.	16e/	16g/	16cc#\	.	16A/
8AAA/	8AA/	8AA/	8c#/J	8e/J	8a/J	8a/J	8AA/	16f/	16f/	16dd\	.	16A/
.	.	.	.	.	.	.	.	16e/JJ	16g/JJ	16cc#\JJ	.	16A/JJ)
8BBB-/L	8BB-/L	8BB-/L	8f\L	8d/L	8dd\L	8dd/L	8BB-/L	8d/L	16f/LL	8dd\L	8r	4F/
.	.	.	.	.	.	.	.	.	16e/	.	.	.
8FFF/	8FF/	8FF/	8d\	16f/LL	8a\J	8a/J	8FF/	8dd/	16f/	8a\J	(16A/LL	.
.	.	.	.	16e/JJ	.	.	.	.	16e/JJ	.	16A/JJ)	.
8GGG/	8GG/	8GG/	8d\	16f/LL	8b-/L	8b-/L	8GG/	8dd/	16f/LL	8b-/L	(16A/LL	4r
.	.	.	.	16e/	.	.	.	.	16e/	.	16A/	.
8AAA/J	8AA/J	8AA/J	8A\J	16f/	16a/LL	16a/LL	8AA/J	8cc#/J	16f/	16a/LL	16A/	.
.	.	.	.	16e/JJ	16g/JJ	16g/JJ	.	.	16e/JJ	16g/JJ	16A/JJ)	.
=28	=28	=28	=28	=28	=28	=28	=28	=28	=28	=28	=28	=28
8DDD/L	8DD/L	8DD/L	8A/L	8d/L	16f/LL	16f/LL	8DD/L	8dd/L	8d/L	16f/LL	8A/L	1r
.	.	.	.	.	16e/	16e/	.	.	.	16e/	.	.
16DD/LL	16D/LL	16D/LL	8F/	16f/LL	16d/	16d/	16D/LL	8a/	16f/LL	16d/	8F/J	.
16CC#/JJ	16C#/JJ	16C#/JJ	.	16e/JJ	16e/JJ	16e/JJ	16C#/JJ	.	16e/JJ	16e/JJ	.	.
16DD/LL	16D/LL	16D/LL	8A/	16d/LL	16f/LL	16f/LL	16D/LL	8f/	16d/LL	16f/LL	4r	.
16CC#/	16C#/	16C#/	.	16e/	16g/	16g/	16C#/	.	16e/	16g/	.	.
16DD/	16D/	16D/	8d/J	16f/	16f/	16f/	16D/	8d/J	16f/	16f/	.	.
16BBB-/JJ	16BB-/JJ	16BB-/JJ	.	16d/JJ	16g/JJ	16g/JJ	16BB-/JJ	.	16d/JJ	16g/JJ	.	.
8CC/L	8C/L	8C/L	8A\L	8e/L	16a\LL	16a/LL	8C/L	8a/L	8e/L	16a\LL	2r	.
.	.	.	.	.	16b-\	16b-/	.	.	.	16b-\	.	.
8AAA/	8AA/	8AA/	8e\	8a/	16cc\	16cc/	8AA/	8e/	8a/	16cc\	.	.
.	.	.	.	.	16a\JJ	16a/JJ	.	.	.	16a\JJ	.	.
8BBB-/	8BB-/	8BB-/	8d\	8f/	16dd\LL	16dd\LL	8BB-/	8d/	8f/	16dd\LL	.	.
.	.	.	.	.	16ff\	16ff\	.	.	.	16ff\	.	.
8GGG/J	8GG/J	8GG/J	8g\J	8b-/J	16ee\	16ee\	8GG/J	8g/J	8b-/J	16ee\	.	.
.	.	.	.	.	16dd\JJ	16dd\JJ	.	.	.	16dd\JJ	.	.
=29	=29	=29	=29	=29	=29	=29	=29	=29	=29	=29	=29	=29
8AAA\L	8AA\L	8AA\L	8e/L	8a/L	8cc#\L	8cc#/L	8AA\L	8e/L	8a\L	8cc#\L	2r	8r
8AA\J	8A\J	8A\J	8c#/	8e/	8a\	8a/	8A\J	16g/LL	16cc#\LL	16ee\LL	.	(16A/LL
.	.	.	.	.	.	.	.	16f/JJ	16bn\JJ	16dd\JJ	.	16A/JJ)
4r	4r	4r	8e/	8a/	8cc#\	8cc#/	4r	16g/LL	16cc#\LL	16ee\LL	.	(16A/LL
.	.	.	.	.	.	.	.	16f/	16b\	16dd\	.	16A/
.	.	.	8a/J	8cc#/J	8ee\J	8ee/J	.	16g/	16cc#\	16ee\	.	16A/
.	.	.	.	.	.	.	.	16f/JJ	16b\JJ	16dd\JJ	.	16A/JJ)
8r	8r	8r	8A\L	8ee\L	8aa\L	8aa\L	8r	8g/L	8cc#\L	8ee\L	8r	4A/
8AAA/L	8AA/L	8AA/L	16a\LL	8cc#\	16a\LL	16a\LL	8AA/L	16a/LL	8cc#\	16a\LL	(16A/LL	.
.	.	.	16g\JJ	.	16b-\JJ	16b-\JJ	.	16g/JJ	.	16b-\JJ	16A/JJ)	.
8BBBn/	8BBn/	8BBn/	8f\L	8dd\	16a/LL	16a/LL	8BBn/	8f/L	8dd\	16a/LL	(16A/LL	4r
.	.	.	.	.	16g/	16g/	.	.	.	16g/	16A/	.
8CC#/J	8C#/J	8C#/J	8e\J	8ee\J	16f/	16f/	8C#/J	8e/J	8ee\J	16f/	16A/	.
.	.	.	.	.	16e/JJ	16e/JJ	.	.	.	16e/JJ	16A/JJ)	.
=30	=30	=30	=30	=30	=30	=30	=30	=30	=30	=30	=30	=30
8DDD/L	8DD/L	8DD/L	8d/L	8a/L	8f/L	8f/L	8DD/L	8d/L	8a\L	8f\L	4A/	8r
8DD/J	8D/J	8D/J	8D/	8A/	8d/	8d/	8D/J	16cc/LL	16ff#\LL	16aa\LL	.	(16a\LL
.	.	.	.	.	.	.	.	16b-/JJ	16ee\JJ	16gg\JJ	.	16a\JJ)
4r	4r	4r	8A/	8d/	8f#/	8f#/	4r	16cc\LL	16ff#\LL	16aa\LL	4r	(16a\LL
.	.	.	.	.	.	.	.	16b-\	16ee\	16gg\	.	16a\
.	.	.	8d/J	8f#/J	8a/J	8a/J	.	16cc\	16ff#\	16aa\	.	16a\
.	.	.	.	.	.	.	.	16b-\JJ	16ee\JJ	16gg\JJ	.	16a\JJ)
8r	8r	8r	8D\L	8a\L	8cc\L	8cc/L	8r	8cc\L	8ff#\L	8aa\L	8r	(8.a\L
8DD\L	8D\L	8D\L	16dd\LL	8ff#\	16dd\LL	16dd/LL	8D\L	16dd\LL	8ff#\	16dd\LL	(16a\LL	.
.	.	.	16cc\JJ	.	16ee-\JJ	16ee-/JJ	.	16cc\JJ	.	16ee-\JJ	16a\JJ)	16dd\Jk)
8EE\	8E\	8E\	8dd\L	8gg\	16dd\LL	16dd/LL	8E\	8dd/L	8gg\	16dd\LL	(16a\LL	4r
.	.	.	.	.	16cc\	16cc/	.	.	.	16cc\	16a\	.
8FF#\J	8F#\J	8F#\J	8d\J	8aa\J	16b-\	16b-/	8F#\J	8d/J	8aa\J	16b-\	16a\	.
.	.	.	.	.	16a\JJ	16a/JJ	.	.	.	16a\JJ	16a\JJ)	.
=31	=31	=31	=31	=31	=31	=31	=31	=31	=31	=31	=31	=31
8GG\L	8G\L	8G\L	8g\L	8dd\L	16b-\LL	16b-\LL	8G\L	8g/L	8dd\L	16b-\LL	(8.g\L	2r
.	.	.	.	.	16dd\	16dd\	.	.	.	16dd\	.	.
8AA\	8A\	8A\	8f#\	8cc\	16gg\	16gg\	8A\	8f#/	8cc\	16gg\	.	.
.	.	.	.	.	16aa\JJ	16aa\JJ	.	.	.	16aa\JJ	16cc\Jk)	.
8BB-\	8B-\	8B-\	8d\	8dd\	16gg\LL	16gg\LL	8B-\	8d/	8dd\	16gg\LL	4r	.
.	.	.	.	.	16ff\	16ff\	.	.	.	16ff\	.	.
8GG\J	8G\J	8G\J	8g\J	8b-\J	16ee\	16een\	8G\J	8g/J	8b-\J	16ee\	.	.
.	.	.	.	.	16dd\JJ	16dd\JJ	.	.	.	16dd\JJ	.	.
8AA\L	8A\L	8A\L	8e\L	8a/L	16cc#\LL	16cc#/LL	8A\L	8e/L	8a/L	16cc#\LL	2r	8r
.	.	.	.	.	16bn\	16bn/	.	.	.	16bn\	.	.
16BB-\LL	16B-\LL	16B-\LL	8c#\	8e/J	16a\	16a/	16B-\LL	8a/	8e/J	16a\	.	(16A/LL
16AA\JJ	16A\JJ	16A\JJ	.	.	16b\JJ	16bn/JJ	16A\JJ	.	.	16b\JJ	.	16A/JJ)
16GG\LL	16G\LL	16G\LL	8e\	16a\LL	16cc#\LL	16cc#\LL	16G\LL	8e/	16a\LL	16cc#\LL	.	(16A/LL
16FF\	16F\	16F\	.	16bn\	16dd\	16dd\	16F\	.	16bn\	16dd\	.	16A/
16EE\	16E\	16E\	8a\J	16cc#\	16ee\	16ee\	16E\	8a/J	16cc#\	16ee\	.	16A/
16DD\JJ	16D\JJ	16D\JJ	.	16dd\JJ	16ff\JJ	16ff\JJ	16D\JJ	.	16dd\JJ	16ff\JJ	.	16A/JJ)
=32	=32	=32	=32	=32	=32	=32	=32	=32	=32	=32	=32	=32
16CC#\LL	16C#\LL	16C#/LL	4a\	4ee\	4gg\	4gg\	16C#\LL	8a/L	16ee\LL	16gg\LL	8r	4A/
16DD\	16D\	16D/	.	.	.	.	16D\	.	16dd\	16ff\	.	.
16EE\	16E\	16E/	.	.	.	.	16E\	16g/LL	16cc#\	16gg\	16A/LL	.
16DD\JJ	16D\JJ	16D/JJ	.	.	.	.	16D\JJ	16a/JJ	16dd\JJ	16ff\JJ	16A/JJ	.
16CC#/LL	16C#/LL	16C#/LL	8r	8r	8r	8r	16C#/LL	8b-/L	16ee\LL	16gg\LL	(16A/LL	4r
16BBBn/	16BBn/	16BBn/	.	.	.	.	16BBn/	.	16dd\	16ff\	16A/	.
16AAA/	16AA/	16AA/	[8a\	[8ee\	[8gg\	[8gg\	16AA/	8e/J	16cc#\	16gg\	16A/	.
16GGG/JJ	16GG/JJ	16GG/JJ	.	.	.	.	16GG/JJ	.	16dd\JJ	16ff\JJ	16A/JJ)	.
8FFF\L	8FF\L	8FF/L	8a\L]	16ee\LL]	16gg\LL]	16gg\LL]	8FF\L	8a/L	16ee\LL	16gg\LL	8A/L	8r
.	.	.	.	16a\	32aa\LLL	32aa\LLL	.	.	16a\	32aa\LLL	.	.
.	.	.	.	.	32gg\	32gg\	.	.	.	32gg\	.	.
8DD\	8D\	8D/	8a\	16dd\	32ff\	32ff\	8D\	8a/	16dd\	32ff\	16A/LL	16a\LL
.	.	.	.	.	32gg\JJJ	32gg\JJJ	.	.	.	32gg\JJJ	.	.
.	.	.	.	16ee\JJ	16aa\JJ	16aa\JJ	.	.	16ee\JJ	16aa\JJ	16A/JJ	16g\JJ
8AA\	8A\	8A/	8a\	8.cc#t\L	8.eet\L	8.eet\L	8A\	8a/	8.cc#t\L	8.eet\L	(16A/LL	16a\LL
.	.	.	.	.	.	.	.	.	.	.	16A/	16g\
8AAA\J	8AA\J	8AA/J	8e\J	.	.	.	8AA\J	8e/J	.	.	16A/	16a\
.	.	.	.	16dd\Jk	16dd\Jk	16dd\Jk	.	.	16dd\Jk	16dd\Jk	16A/JJ)	16g\JJ
=33	=33	=33	=33	=33	=33	=33	=33	=33	=33	=33	=33	=33
4DD\	4D\	4D\	4f\	4dd\	4dd\	4dd\	4D\	8f/	8dd\	8dd\	8A/	8f\
.	.	.	.	.	.	.	.	8dd\L	8dd\L	8dd\L	16f\LL	16a\LL
.	.	.	.	.	.	.	.	.	.	.	16e\JJ	16g\JJ
4r	4r	4r	4r	4r	4r	4r	4r	8cc\	8cc\	8cc\	16f\LL	16a\LL
.	.	.	.	.	.	.	.	.	.	.	16e\	16g\
.	.	.	.	.	.	.	.	8b-\J	8b-\J	8b-\J	16f\	16a\
.	.	.	.	.	.	.	.	.	.	.	16g\JJ	16b-\JJ
2r	2r	2r	2r	2r	2r	2r	2r	8a/L	8a/L	8a/L	16a\LL	16cc\LL
.	.	.	.	.	.	.	.	.	.	.	16g\	16bn\
.	.	.	.	.	.	.	.	8g/	8g/	8g/	16a\	16cc\
.	.	.	.	.	.	.	.	.	.	.	16bn\JJ	16dd\JJ
.	.	.	.	.	.	.	.	8f#/	8f#/	8f#/	16a\LL	16cc\LL
.	.	.	.	.	.	.	.	.	.	.	16b\	16dd\
.	.	.	.	.	.	.	.	8d/J	8d/J	8d/J	16a\	16cc\
.	.	.	.	.	.	.	.	.	.	.	16b\JJ	16dd\JJ
=34	=34	=34	=34	=34	=34	=34	=34	=34	=34	=34	=34	=34
4GGG/	4GG/	4GG/	8r	8r	8r	1r	4GG/	8g/	8g/	8g/	8g\	8bn\
.	.	.	8g\L	8g/L	8g/L	.	.	8r	16bn/LL	16dd\LL	8r	8r
.	.	.	.	.	.	.	.	.	16a/JJ	16cc\JJ	.	.
4r	4r	4r	8f\	8f/	8f/	.	4r	4r	16b/LL	16dd\LL	4r	4r
.	.	.	.	.	.	.	.	.	16a/	16cc\	.	.
.	.	.	8e\J	8e/J	8e/J	.	.	.	16b/	16dd\	.	.
.	.	.	.	.	.	.	.	.	16cc/JJ	16ee\JJ	.	.
2r	2r	2r	8d\L	8d/L	8d/L	.	2r	2r	16dd\LL	16ff\LL	2r	2r
.	.	.	.	.	.	.	.	.	16cc\	16ee\	.	.
.	.	.	8c\	8c/	8c/	.	.	.	16dd\	16ff\	.	.
.	.	.	.	.	.	.	.	.	16ee\JJ	16gg\JJ	.	.
.	.	.	8Bn\	8Bn/	8Bn/	.	.	.	16dd\LL	16ff\LL	.	.
.	.	.	.	.	.	.	.	.	16ee\	16gg\	.	.
.	.	.	8G\J	8G/J	8G/J	.	.	.	16dd\	16ff\	.	.
.	.	.	.	.	.	.	.	.	16ee\JJ	16gg\JJ	.	.
=35	=35	=35	=35	=35	=35	=35	=35	=35	=35	=35	=35	=35
8CC/	8C/	8C/	4c\	8c/	8c/	8r	8C/	1r	8cc\	8ee\	1r	1r
8C\L	8c\L	8c\L	.	16ee\LL	16gg\LL	16gg\LL	8c\L	.	8r	8r	.	.
.	.	.	.	16dd\JJ	16ff\JJ	16ff\JJ	.	.	.	.	.	.
8BB-\	8B-\	8B-\	4r	16ee\LL	16gg\LL	16gg\LL	8B-\	.	4r	4r	.	.
.	.	.	.	16dd\	16ff\	16ff\	.	.	.	.	.	.
8AA\J	8A\J	8A\J	.	16ee\	16gg\	16gg\	8A\J	.	.	.	.	.
.	.	.	.	16ff\JJ	16aa\JJ	16aa\JJ	.	.	.	.	.	.
8GG\L	8G\L	8G\L	2r	16gg\LL	16bb-\LL	16bb-\LL	8G\L	.	2r	2r	.	.
.	.	.	.	16ff\	16aa\	16aa\	.	.	.	.	.	.
8FF\	8F\	8F\	.	16gg\	16bb-\	16bb-\	8F\	.	.	.	.	.
.	.	.	.	16aa\JJ	16ccc\JJ	16ccc\JJ	.	.	.	.	.	.
8EE\	8E\	8E\	.	16gg\LL	16bb-\LL	16bb-\LL	8E\	.	.	.	.	.
.	.	.	.	16aa\	16ccc\	16ccc\	.	.	.	.	.	.
8CC\J	8C\J	8C\J	.	16gg\	16bb-\	16bb-\	8C\J	.	.	.	.	.
.	.	.	.	16aa\JJ	16ccc\JJ	16ccc\JJ	.	.	.	.	.	.
=36	=36	=36	=36	=36	=36	=36	=36	=36	=36	=36	=36	=36
8FF/L	8F/L	8F/L	4r	4ff\	4aa\	4aa\	8F/L	8r	8r	8r	4r	2cc\
16CC/LL	16C/LL	16C/LL	.	.	.	.	16C/LL	8e-/L	8a\L	8cc\L	.	.
16BBB-/JJ	16BB-/JJ	16BB-/JJ	.	.	.	.	16BB-/JJ	.	.	.	.	.
16CC/LL	16C/LL	16C/LL	8r	8r	8r	8r	16C/LL	8a/	8cc\	8ee-\	2a\	.
16BBB-/	16BB-/	16BB-/	.	.	.	.	16BB-/	.	.	.	.	.
16CC/	16C/	16C/	8e-\	8a/	8ee-\	8ee-\	16C/	8cc/J	8ee-\J	8aa\J	.	.
16DD/JJ	16D/JJ	16D/JJ	.	.	.	.	16D/JJ	.	.	.	.	.
16EE-/LL	16E-/LL	16E-/LL	8e-\L	8a/L	8b-\L	8b-/L	16E-/LL	8r	8r	8r	.	2b-\
16FF/	16F/	16F/	.	.	.	.	16F/	.	.	.	.	.
16BBB-/	16BB-/	16BB-/	8d\J	8b-/J	8dd\J	8dd/J	16BB-/	8d/L	8f/L	8b-\L	.	.
16AAA/JJ	16AA/JJ	16AA/JJ	.	.	.	.	16AA/JJ	.	.	.	.	.
16BBB-/LL	16BB-/LL	16BB-/LL	8r	8r	8r	8r	16BB-/LL	8g/	8b-/	8dd\	[4g\	.
16AAA/	16AA/	16AA/	.	.	.	.	16AA/	.	.	.	.	.
16BBB-/	16BB-/	16BB-/	8d\	8g/	8dd\	8dd\	16BB-/	8b-/J	8dd/J	8gg\J	.	.
16CC/JJ	16C/JJ	16C/JJ	.	.	.	.	16C/JJ	.	.	.	.	.
=37	=37	=37	=37	=37	=37	=37	=37	=37	=37	=37	=37	=37
16DD/LL	16D/LL	16D/LL	8d\L	8g/L	8a\L	8a/L	16D/LL	8r	8r	8r	4g\]	2a\
16EE/	16E/	16E/	.	.	.	.	16E/	.	.	.	.	.
16AAA/	16AA/	16AA/	8c\J	8a/J	8cc\J	8cc/J	16AA/	8c/L	8e/L	8a\L	.	.
16GGG/JJ	16GG/JJ	16GG/JJ	.	.	.	.	16GG/JJ	.	.	.	.	.
16AAA/LL	16AA/LL	16AA/LL	8r	8r	8r	8r	16AA/LL	8f/	8a/	8cc\	[4f\	.
16GGG/	16GG/	16GG/	.	.	.	.	16GG/	.	.	.	.	.
16AAA/	16AA/	16AA/	8c\	8f/	8cc\	8cc/	16AA/	8a/J	8cc/J	8ff\J	.	.
16BBB-/JJ	16BB-/JJ	16BB-/JJ	.	.	.	.	16BB-/JJ	.	.	.	.	.
8CC/L	8C/L	8C/L	8c\L	8f/L	8g/L	8g/L	8C/L	4r	4r	4r	8f\L]	16g\LL
.	.	.	.	.	.	.	.	.	.	.	.	16a\
8GGG/	8GG/	8GG/	8e\J	8g/J	8b-/J	8b-/J	8GG/	.	.	.	16c\LL	16g\
.	.	.	.	.	.	.	.	.	.	.	16f\JJ	16a\JJ
8EEE/	8EE/	8EE/	4r	4r	4r	4r	8EE/	[4cc\	[4ee\	[4gg\	16g\LL	16b-\LL
.	.	.	.	.	.	.	.	.	.	.	16a\	16cc\
8CCC/J	8CC/J	8CC/J	.	.	.	.	8CC/J	.	.	.	16g\	16b-\
.	.	.	.	.	.	.	.	.	.	.	16a\JJ	16cc\JJ
=38	=38	=38	=38	=38	=38	=38	=38	=38	=38	=38	=38	=38
16FFF/LL	16FF/LL	16FF/LL	1f\	1a/	2cc\	2cc/	16FF/LL	8cc/L]	8ee\L]	8gg\L]	[2f\	[2a\
16CC/	16C/	16C/	.	.	.	.	16C/	.	.	.	.	.
16FF/	16F/	16F/	.	.	.	.	16F/	8c/	8f\	8a\	.	.
16EE/JJ	16E/JJ	16E/JJ	.	.	.	.	16E/JJ	.	.	.	.	.
16FF\LL	16F\LL	16F\LL	.	.	.	.	16F\LL	8f/	8a\	8cc\	.	.
16EE\	16E\	16E\	.	.	.	.	16E\	.	.	.	.	.
16FF\	16F\	16F\	.	.	.	.	16F\	8a/J	8cc\J	8ff\J	.	.
16EE\JJ	16E\JJ	16E\JJ	.	.	.	.	16E\JJ	.	.	.	.	.
8DD/L	8D/L	8D/L	.	.	[2dd\	[2dd\	8D/L	[2dd\	[2ff\	[2aa\	16f\LL]	16a\LL]
.	.	.	.	.	.	.	.	.	.	.	16g\	16b-\
8AAA/	8AA/	8AA/	.	.	.	.	8AA/	.	.	.	16f\	16a\
.	.	.	.	.	.	.	.	.	.	.	16g\JJ	16bn\JJ
8FFF/	8FF/	8FF/	.	.	.	.	8FF/	.	.	.	16a\LL	16cc\LL
.	.	.	.	.	.	.	.	.	.	.	16bn\	16dd\
8DDD/J	8DD/J	8DD/J	.	.	.	.	8DD/J	.	.	.	16a\	16cc\
.	.	.	.	.	.	.	.	.	.	.	16b\JJ	16dd\JJ
=39	=39	=39	=39	=39	=39	=39	=39	=39	=39	=39	=39	=39
16GGG\LL	16GG\LL	16GG\LL	1g\	1bn\	2dd\]	2dd\]	16GG\LL	8dd/L]	8ff\L]	8aa\L]	[2g\	[2bn\
16DD\	16D\	16D\	.	.	.	.	16D\	.	.	.	.	.
16GG\	16G\	16G\	.	.	.	.	16G\	8d/	8g\	8bn\	.	.
16FF\JJ	16F\JJ	16F\JJ	.	.	.	.	16F\JJ	.	.	.	.	.
16GG\LL	16G\LL	16G\LL	.	.	.	.	16G\LL	8g/	8bn\	8dd\	.	.
16FF\	16F\	16F\	.	.	.	.	16F\	.	.	.	.	.
16GG\	16G\	16G\	.	.	.	.	16G\	8bn/J	8dd\J	8gg\J	.	.
16FF\JJ	16F\JJ	16F\JJ	.	.	.	.	16F\JJ	.	.	.	.	.
8EE/L	8E/L	8E/L	.	.	[2ee\	[2ee\	8E/L	[2ee\	[2gg\	[2bb\	16g\LL]	16b\LL]
.	.	.	.	.	.	.	.	.	.	.	16a\	16cc\
8BBBn/	8BBn/	8BBn/	.	.	.	.	8BBn/	.	.	.	16g\	16b\
.	.	.	.	.	.	.	.	.	.	.	16a\JJ	16cc\JJ
8GGG/	8GG/	8GG/	.	.	.	.	8GG/	.	.	.	16bn\LL	16dd\LL
.	.	.	.	.	.	.	.	.	.	.	16cc\	16ee\
8EEE/J	8EE/J	8EE/J	.	.	.	.	8EE/J	.	.	.	16b\	16dd\
.	.	.	.	.	.	.	.	.	.	.	16cc\JJ	16ee\JJ
=40	=40	=40	=40	=40	=40	=40	=40	=40	=40	=40	=40	=40
16AAA\LL	16AA\LL	16AA\LL	2a\	2cc\	2ee\]	2ee\]	16AA\LL	8ee/L]	8gg\L]	8bb\L]	[2a\	[2cc\
16EE\	16E\	16E\	.	.	.	.	16E\	.	.	.	.	.
16AA\	16A\	16A\	.	.	.	.	16A\	8e/	8a\	8cc\	.	.
16GG\JJ	16G\JJ	16G\JJ	.	.	.	.	16G\JJ	.	.	.	.	.
16AA\LL	16A\LL	16A\LL	.	.	.	.	16A\LL	8a/	8cc\	8ee\	.	.
16GG\	16G\	16G\	.	.	.	.	16G\	.	.	.	.	.
16AA\	16A\	16A\	.	.	.	.	16A\	8cc/J	8ee\J	8aa\J	.	.
16GG\JJ	16G\JJ	16G\JJ	.	.	.	.	16G\JJ	.	.	.	.	.
8FF#\L	8F#\L	8F#\L	8r	8r	8r	8r	8F#\L	[4ee-\	[4aa\	[4ccc\	16a\LL]	16cc\LL]
.	.	.	.	.	.	.	.	.	.	.	16g\	16bn\
8E-\	8e-\	8e-\	8A\L	8c/L	8f#/L	8f#/L	8e-\	.	.	.	16a\	16cc\
.	.	.	.	.	.	.	.	.	.	.	16g\JJ	16b\JJ
8C\	8c\	8c\	8c\	8f#/	8a/	8a/	8c\	16ee-\LL]	16aa\LL]	16ccc\LL]	[4a\	[4cc\
.	.	.	.	.	.	.	.	16dd\	16gg\	16bbn\	.	.
8AA\J	8A\J	8A\J	8f#\J	8a/J	8cc/J	8cc/J	8A\J	16ee-\	16aa\	16ccc\	.	.
.	.	.	.	.	.	.	.	16dd\JJ	16gg\JJ	16bb\JJ	.	.
=41	=41	=41	=41	=41	=41	=41	=41	=41	=41	=41	=41	=41
8FF#\L	8F#\L	8F#\L	8a\L	8cc/L	8ee-\L	8ee-/L	8F#\L	[4ee-\	[4aa\	[4ccc\	16a\LL]	16cc\LL]
.	.	.	.	.	.	.	.	.	.	.	16g\	16bn\
8C\	8c\	8c\	8c\	8f#/	8a\	8a/	8c\	.	.	.	16a\	16cc\
.	.	.	.	.	.	.	.	.	.	.	16g\JJ	16b\JJ
8AA\	8A\	8A\	8f#\	8a/	8cc\	8cc/	8A\	16ee-\LL]	16aa\LL]	16ccc\LL]	[4a\	[4cc\
.	.	.	.	.	.	.	.	16dd\	16gg\	16bbn\	.	.
8FF#\J	8F#\J	8F#\J	8a\J	8cc/J	8ee-\J	8ee-/J	8F#\J	16ee-\	16aa\	16ccc\	.	.
.	.	.	.	.	.	.	.	16cc\JJ	16gg\JJ	16bb\JJ	.	.
8DD/L	8D/L	8D/L	8a\L	8cc\L	8ff#\L	8ff#\L	8D/L	4dd\	4ff#\	4ccc\	16a\LL]	16cc\LL]
.	.	.	.	.	.	.	.	.	.	.	16g\	16b\
8AAA/	8AA/	8AA/	8cc\	8ee-\	8aa\	8aa\	8AA/	.	.	.	16a\	16cc\
.	.	.	.	.	.	.	.	.	.	.	16g\JJ	16b\JJ
8FFF#/	8FF#/	8FF#/	8f#\	8a\	8dd\	8dd\	8FF#/	8r	8r	8r	16a\LL	16cc\LL
.	.	.	.	.	.	.	.	.	.	.	16g\	16b\
8DDD/J	8DD/J	8DD/J	8a\J	8dd\J	8ff#\J	8ff#\J	8DD/J	8d/	8f#/	8a/	16a\	16cc\
.	.	.	.	.	.	.	.	.	.	.	16bn\JJ	16dd\JJ
=42	=42	=42	=42	=42	=42	=42	=42	=42	=42	=42	=42	=42
4FF\	4F\	4F\	4bn\	4dd\	4gg\	4gg\	4F\	8d/L	8g/L	8bn\L	16g\LL	16bn\LL
.	.	.	.	.	.	.	.	.	.	.	16f\	16a\
.	.	.	.	.	.	.	.	8g/	8bn/	8dd\	16g\	16b\
.	.	.	.	.	.	.	.	.	.	.	16f\JJ	16a\JJ
8r	8r	8r	8r	8r	8r	8r	8r	8bn/	8d/	8g\	16g\LL	16b\LL
.	.	.	.	.	.	.	.	.	.	.	16a\	16cc\
8FF\	8F\	8F\	8g\	8bn\	8dd\	8dd\	8F\	8d/J	8g/J	8b\J	16f\	16a\
.	.	.	.	.	.	.	.	.	.	.	16g\JJ	16b\JJ
8EE\L	8E\L	8E\L	8c\L	8g/L	16ee\LL	16een\LL	8E\L	8e/L	8g/L	16cc\LL	8c\L	8g\L
.	.	.	.	.	16ff\	16ff\	.	.	.	16ff\	.	.
8FF\	8F\	8F\	8c\	16a/LL	16ee\	16ee\	8F\	8a/	16a/LL	16ee\	8a\	16cc\LL
.	.	.	.	16b/JJ	16dd\JJ	16dd\JJ	.	.	16b/JJ	16dd\JJ	.	16dd\JJ
8GG\	8G\	8G\	8g\	8.bt/L	8.ddT\L	8.ddT/L	8G\	8d/	8.bt/L	8.ddT\L	8g\	8.bt\L
8GGG\J	8GG\J	8GG\J	8d\J	.	.	.	8GG\J	8g/J	.	.	8g\J	.
.	.	.	.	16g/Jk	16cc\Jk	16cc/Jk	.	.	16g/Jk	16cc\Jk	.	16cc\Jk
=43	=43	=43	=43	=43	=43	=43	=43	=43	=43	=43	=43	=43
4CC/	4C/	4C/	8e\	8g/	8cc\	8cc/	4C/	8e/	8g/	8cc\	4g\	4cc\
.	.	.	8E/L	8G/L	8c/L	8c/L	.	16e/LL	16g/LL	(16cc\LL	.	.
.	.	.	.	.	.	.	.	16d/JJ	16f/JJ	16bn\JJ)	.	.
8r	8r	8r	8G/	8c/	8e/	8e/	8r	16e/LL	16g/LL	(16cc\LL	4r	4r
.	.	.	.	.	.	.	.	16d/	16f/	16b\)	.	.
8GGG/	8GG/	8GG/	8Bn/J	8d/J	8g/J	8g/J	8GG/	16e/	16g/	(16cc\	.	.
.	.	.	.	.	.	.	.	16d/JJ	16f/JJ	16b\JJ)	.	.
8AAA/L	8AA/L	8AA/L	8E/L	8c/L	8cc/L	8cc/L	8AA/L	8c/L	16e/LL	8cc/L	2r	2r
.	.	.	.	.	.	.	.	.	16d/	.	.	.
8EEE/	8EE/	8EE/	16c/LL	16e/LL	8g/J	8g/J	8EE/	8cc/	16e/	8g/J	.	.
.	.	.	16B/JJ	16d/JJ	.	.	.	.	16d/JJ	.	.	.
8FFF/	8FF/	8FF/	8A/L	16e/LL	8a/L	8a/L	8FF/	8cc/	16e/LL	8a/L	.	.
.	.	.	.	16d/	.	.	.	.	16d/	.	.	.
8GGG/J	8GG/J	8GG/J	8B/J	16e/	16g/LL	16g/LL	8GG/J	8bn/J	16e/	16g/LL	.	.
.	.	.	.	16d/JJ	16f/JJ	16f/JJ	.	.	16d/JJ	16f/JJ	.	.
=44	=44	=44	=44	=44	=44	=44	=44	=44	=44	=44	=44	=44
8CCC/L	8CC/L	8CC/L	8G/L	8c/L	16e/LL	16e/LL	8CC/L	8cc/L	8c/L	16e/LL	1r	1r
.	.	.	.	.	16d/	16d/	.	.	.	16d/	.	.
16CC/LL	16C/LL	16C/LL	8E/	16e/LL	16c/	16c/	16C/LL	8g/	16e/LL	16c/	.	.
16BBBn/JJ	16BBn/JJ	16BBn/JJ	.	16d/JJ	16d/JJ	16d/JJ	16BBn/JJ	.	16d/JJ	16d/JJ	.	.
16CC/LL	16C/LL	16C/LL	8G/	16c/LL	16e/LL	16e/LL	16C/LL	8e/	16c/LL	16e/LL	.	.
16BBB/	16BB/	16BB/	.	16d/	16f#/	16f#/	16BB/	.	16d/	16f#/	.	.
16CC/	16C/	16C/	8c/J	16e/	16e/	16e/	16C/	8c/J	16e/	16e/	.	.
16AAA/JJ	16AA/JJ	16AA/JJ	.	16c/JJ	16f#/JJ	16f#/JJ	16AA/JJ	.	16c/JJ	16f#/JJ	.	.
8BBB/L	8BB/L	8BB/L	8g\L	8d/L	16g/LL	16g/LL	8BB/L	8g/L	8d/L	16g/LL	.	.
.	.	.	.	.	16a/	16a/	.	.	.	16a/	.	.
8GGG/	8GG/	8GG/	8d\	8g/	16bn/	16bn/	8GG/	8g/	8g/	16bn/	.	.
.	.	.	.	.	16g/JJ	16g/JJ	.	.	.	16g/JJ	.	.
8AAA/	8AA/	8AA/	8c\	8g/	16cc\LL	16cc/LL	8AA/	8e/	8g/	16cc\LL	.	.
.	.	.	.	.	16b\	16bn/	.	.	.	16b\	.	.
8DDD/J	8DD/J	8DD/J	8d\J	8f#/J	16cc\	16cc/	8DD/J	8d/J	8f#/J	16cc\	.	.
.	.	.	.	.	16dd\JJ	16dd/JJ	.	.	.	16dd\JJ	.	.
=45	=45	=45	=45	=45	=45	=45	=45	=45	=45	=45	=45	=45
8GGG/L	8GG/L	8GG\L	8d/L	8g/L	8bn/L	8bn/L	8GG\L	8d/L	8g/L	8bn\L	1r	1r
8GG/J	8G/J	8G\J	8G/	8Bn/	8d/	8d/	8G\J	(16f/LL	16bn/LL	16dd\LL	.	.
.	.	.	.	.	.	.	.	16e/JJ)	16a/JJ	16cc\JJ	.	.
4r	4r	4r	8Bn/	8d/	8g/	8g/	4r	16f/LL	16b/LL	16dd\LL	.	.
.	.	.	.	.	.	.	.	16e/	16a/	16cc\	.	.
.	.	.	8d/J	8g/J	8b/J	8bn/J	.	16f/	16b/	16dd\	.	.
.	.	.	.	.	.	.	.	16e/JJ	16a/JJ	16cc\JJ	.	.
8r	8r	8r	8g#\L	8bn\L	8dd\L	8dd\L	8r	8e/L	8b\L	8dd\L	.	.
8EEE/L	8EE/L	8EE/L	8g#\	16ee\LL	16ee\LL	16ee\LL	8E\L	8g#/	16ee\LL	16ee\LL	.	.
.	.	.	.	16dd\JJ	16ff\JJ	16ff\JJ	.	.	16dd\JJ	16ff\JJ	.	.
8FFF#/	8FF#/	8FF#/	8a\	8cc\L	16ee\LL	16ee\LL	8F#\	8a/	8cc\L	16ee\LL	.	.
.	.	.	.	.	16dd\	16dd\	.	.	.	16dd\	.	.
8GGG#/J	8GG#/J	8GG#/J	8bn\J	8b\J	16cc\	16cc\	8G#\J	8bn/J	8b\J	16cc\	.	.
.	.	.	.	.	16b\JJ	16bn\JJ	.	.	.	16b\JJ	.	.
=46	=46	=46	=46	=46	=46	=46	=46	=46	=46	=46	=46	=46
8AAA\L	8AA\L	8AA\L	8e\L	8a/L	8cc/L	8cc/L	8A\L	8e/L	8a\L	8cc\L	1r	1r
8AA\J	8A\J	8A\J	8A\	8c#/	8e/	8e/	8AA\J	16g/LL	16cc#\LL	16ee\LL	.	.
.	.	.	.	.	.	.	.	16f/JJ	16bn\JJ	16dd\JJ	.	.
4r	4r	4r	8c#\	8e/	8a/	8a/	4r	16g/LL	16cc#\LL	16ee\LL	.	.
.	.	.	.	.	.	.	.	16f/	16b\	16dd\	.	.
.	.	.	8e\J	8a/J	8cc#/J	8cc#/J	.	16g/	16cc#\	16ee\	.	.
.	.	.	.	.	.	.	.	16f/JJ	16b\JJ	16dd\JJ	.	.
8r	8r	8r	8g\L	8cc#\L	8ee\L	8ee\L	8r	8g/L	8cc#\L	8ee\L	.	.
8AAA/L	8AA/L	8AA/L	16a\LL	8cc#\	16ff\LL	16ff\LL	8AA/L	16a/LL	8cc#\	16ff\LL	.	.
.	.	.	16b-\JJ	.	16gg\JJ	16gg\JJ	.	16b-/JJ	.	16gg\JJ	.	.
8DD/	8D/	8D/	16a\LL	8dd\	16ff\LL	16ff\LL	8D/	16a/LL	8dd\	16ff\LL	.	.
.	.	.	16g\	.	16ee\	16ee\	.	16g/	.	16ee\	.	.
8EE/J	8E/J	8E/J	16f\	8g\J	16dd\	16dd\	8E/J	16f/	8g\J	16dd\	.	.
.	.	.	16e\JJ	.	16cc#\JJ	16cc#\JJ	.	16e/JJ	.	16cc#\JJ	.	.
=47	=47	=47	=47	=47	=47	=47	=47	=47	=47	=47	=47	=47
8FF\L	8F\L	8F\L	4d\	4a/	8dd\L	8dd\L	8F\L	4d/	4a/	8dd\L	1r	1r
16EE\LL	16E\LL	16E\LL	.	.	16ee\LL	16ee\LL	16E\LL	.	.	16ee\LL	.	.
16DD\JJ	16D\JJ	16D\JJ	.	.	16ff\JJ	16ff\JJ	16D\JJ	.	.	16ff\JJ	.	.
16CC/LL	16C/LL	16C/LL	8r	8r	16ee\LL	16ee/LL	16C/LL	8r	8r	16ee\LL	.	.
16BBBn/	16BBn/	16BBn/	.	.	16dd\	16dd/	16BBn/	.	.	16dd\	.	.
16AAA/	16AA/	16AA/	8e\	8e/	16cc\	16cc/	16AA/	8e/	8e/	16cc\	.	.
16GGG#/JJ	16GG#/JJ	16GG#/JJ	.	.	16bn\JJ	16bn/JJ	16GG#/JJ	.	.	16bn\JJ	.	.
8AAA/L	8AA/L	8AA/L	8e\L	8.a/L	8.cc\L	8.cc/L	8AA/L	8e/L	8.a/L	8.cc\L	.	.
8DD/	8D/	8D/	8f\	.	.	.	8D/	8f/	.	.	.	.
.	.	.	.	16bn/Jk	16dd\Jk	16dd/Jk	.	.	16bn/Jk	16dd\Jk	.	.
8EE/	8E/	8E/	8Bn\	8.g#t/L	8.bt/L	8.bnt/L	8E/	8e/	8.g#t/L	8.bt/L	.	.
8EEE/J	8EE/J	8EE/J	8e\J	.	.	.	8EE/J	8e/J	.	.	.	.
.	.	.	.	16a/Jk	16a/Jk	16a/Jk	.	.	16e/Jk	16a/Jk	.	.
=48	=48	=48	=48	=48	=48	=48	=48	=48	=48	=48	=48	=48
8AAA/	8AA/	8AA/	4c\	4a/	4a/	4a/	8AA/	4c/	4e/	4a/	8r	8r
8AA\L	8A\L	8A\L	.	.	.	.	8A\L	.	.	.	16a\LL	16cc\LL
.	.	.	.	.	.	.	.	.	.	.	16g\JJ	16b-\JJ
8BB-\	8B-\	8B-\	4r	4r	4r	4r	8B-\	4r	4r	4r	16a\LL	16cc\LL
.	.	.	.	.	.	.	.	.	.	.	16b-\	16dd\
8C\J	8c\J	8c\J	.	.	.	.	8c\J	.	.	.	16a\	16cc\
.	.	.	.	.	.	.	.	.	.	.	16g\JJ	16b-\JJ
8D\L	8d\L	8d\L	2r	2r	2r	2r	8d\L	2r	2r	2r	8f\L	8a\L
8GG\	8G\	8G\	.	.	.	.	8G\	.	.	.	16g\LL	16b-\LL
.	.	.	.	.	.	.	.	.	.	.	16f\JJ	16a\JJ
8AA\	8A\	8A\	.	.	.	.	8A\	.	.	.	16g\LL	16b-\LL
.	.	.	.	.	.	.	.	.	.	.	16a\	16cc\
8BB-\J	8B-\J	8B-\J	.	.	.	.	8B-\J	.	.	.	16g\	16b-\
.	.	.	.	.	.	.	.	.	.	.	16f\JJ	16a\JJ
=49	=49	=49	=49	=49	=49	=49	=49	=49	=49	=49	=49	=49
8C\L	8c\L	8c\L	1r	1r	1r	1r	8c\L	1r	8r	8r	8c/	8g\
8FF\	8F\	8F\	.	.	.	.	8F\	.	16a/LL	16ff\LL	8r	8r
.	.	.	.	.	.	.	.	.	16g/JJ	16ee\JJ	.	.
8GG\	8G\	8G\	.	.	.	.	8G\	.	16a/LL	16ff\LL	4r	4r
.	.	.	.	.	.	.	.	.	16b-/	16gg\	.	.
8AA\J	8A\J	8A\J	.	.	.	.	8A\J	.	16a/	16ff\	.	.
.	.	.	.	.	.	.	.	.	16g/JJ	16ee\JJ	.	.
8BB-\L	8B-\L	8B-\L	.	.	.	.	8B-\L	.	8f/L	8dd\L	2r	2r
8EE\	8E\	8E\	.	.	.	.	8E\	.	16g/LL	16ee\LL	.	.
.	.	.	.	.	.	.	.	.	16f/JJ	16dd\JJ	.	.
8FF\	8F\	8F\	.	.	.	.	8F\	.	16g/LL	16ee\LL	.	.
.	.	.	.	.	.	.	.	.	16a/	16ff\	.	.
8GG\J	8G\J	8G\J	.	.	.	.	8G\J	.	16g/	16ee\	.	.
.	.	.	.	.	.	.	.	.	16f/JJ	16dd\JJ	.	.
=50	=50	=50	=50	=50	=50	=50	=50	=50	=50	=50	=50	=50
8AA\L	8A\L	8A\L	1r	8r	8r	8r	8A\L	1r	8e/	8cc#\	1r	1r
8GG\	8G\	8G\	.	16cc#\LL	16aa\LL	16aa\LL	8G\	.	8r	8r	.	.
.	.	.	.	16bn\JJ	16gg\JJ	16gg\JJ	.	.	.	.	.	.
8FF\	8F\	8F\	.	16cc#\LL	16aa\LL	16aa\LL	8F\	.	4r	4r	.	.
.	.	.	.	16dd\	16bb-\	16bb-\	.	.	.	.	.	.
8EE\J	8E\J	8E\J	.	16ee\	16aa\	16aa\	8E\J	.	.	.	.	.
.	.	.	.	16cc#\JJ	16gg\JJ	16gg\JJ	.	.	.	.	.	.
8DD/L	8D/L	8D/L	.	16dd\LL	16ff#\LL	16ff#\LL	8D/L	.	2r	2r	.	.
.	.	.	.	16ee\	16gg\	16gg\	.	.	.	.	.	.
8CC/	8C/	8C/	.	16ff#\	16aa\	16aa\	8C/	.	.	.	.	.
.	.	.	.	16gg\JJ	16bb-\JJ	16bb-\JJ	.	.	.	.	.	.
8BBB-/	8BB-/	8BB-/	.	16aa\LL	16ccc\LL	16ccc\LL	8BB-/	.	.	.	.	.
.	.	.	.	16gg\	16bb-\	16bb-\	.	.	.	.	.	.
8AAA/J	8AA/J	8AA/J	.	16ff#\	16ccc\	16ccc\	8AA/J	.	.	.	.	.
.	.	.	.	16aa\JJ	16aa\JJ	16aa\JJ	.	.	.	.	.	.
=51	=51	=51	=51	=51	=51	=51	=51	=51	=51	=51	=51	=51
8GGG/L	8GG/L	8GG/L	1r	16dd\LL	16bb-\LL	16bb-\LL	8GG/L	1r	1r	1r	1r	1r
.	.	.	.	16cc\	16aa\	16aa\	.	.	.	.	.	.
8BBB-/	8BB-/	8BB-/	.	16dd\	16bb-\	16bb-\	8BB-/	.	.	.	.	.
.	.	.	.	16ee-\JJ	16ccc\JJ	16ccc\JJ	.	.	.	.	.	.
8CC/	8C/	8C/	.	16dd\LL	16bb-\LL	16bb-\LL	8C/	.	.	.	.	.
.	.	.	.	16cc\	16aa\	16aa\	.	.	.	.	.	.
8DD/J	8D/J	8D/J	.	16b-\	16gg\	16gg\	8D/J	.	.	.	.	.
.	.	.	.	16a\JJ	16ff#\JJ	16ff#\JJ	.	.	.	.	.	.
8EE-/L	8E-/L	8E-/L	.	16g\LL	8.gg\L	8.gg\L	8E-/L	.	.	.	.	.
.	.	.	.	16ee-\	.	.	.	.	.	.	.	.
8CC/	8C/	8C/	.	16dd\	.	.	8C/	.	.	.	.	.
.	.	.	.	16cc\JJ	16aa\Jk	16aa\Jk	.	.	.	.	.	.
8DD/	8D/	8D/	.	8b-t/L	8.ff#t\L	8.ff#t\L	8D/	.	.	.	.	.
8DDD/J	8DD/J	8DD/J	.	16a/LL	.	.	8DD/J	.	.	.	.	.
.	.	.	.	16g/JJ	16gg\Jk	16gg\Jk	.	.	.	.	.	.
=52	=52	=52	=52	=52	=52	=52	=52	=52	=52	=52	=52	=52
4GGG/	4GG/	4GG/	8r	8g/	8gg\	8gg\	4GG/	8r	8r	8r	1r	1r
.	.	.	8B-\L	8d/L	8g\L	8g/L	.	16b-/LL	16dd\LL	16gg\LL	.	.
.	.	.	.	.	.	.	.	16a/JJ	16cc\JJ	16ff#\JJ	.	.
8r	8r	8r	8d\	8g/	8b-\	8b-/	8r	16b-/LL	16dd\LL	16gg\LL	.	.
.	.	.	.	.	.	.	.	16a/	16cc\	16ff#\	.	.
8DD\	8D\	8D\	8f#\J	8a/J	8dd\J	8dd/J	8D\	16b-/	16dd\	16gg\	.	.
.	.	.	.	.	.	.	.	16a/JJ	16cc\JJ	16ff#\JJ	.	.
8EE-\L	8E-\L	8E-\L	8b-\L	8g/L	8gg\L	8gg\L	8E-/L	16g/LL	16b-/LL	8gg\L	.	.
.	.	.	.	.	.	.	.	16f#/	16a/	.	.	.
8BBB-\	8BB-\	8BB-\	8g\	16b-/LL	8dd\J	8dd\J	8BB-/	16g/	16b-/	8dd\J	.	.
.	.	.	.	16a/JJ	.	.	.	16f#/JJ	16a/JJ	.	.	.
8CC\	8C\	8C\	8g\	16b-/LL	8ee-\L	8ee-\L	8C/	16g/LL	16b-/LL	8ee-\L	.	.
.	.	.	.	16a/	.	.	.	16f#/	16a/	.	.	.
8DD\J	8D\J	8D\J	8d\J	16b-/	16dd\LL	16dd\LL	8D/J	16g/	16b-/	16dd\LL	.	.
.	.	.	.	16a/JJ	16cc\JJ	16cc\JJ	.	16f#/JJ	16a/JJ	16cc\JJ	.	.
=53	=53	=53	=53	=53	=53	=53	=53	=53	=53	=53	=53	=53
8GGG/	8GG/	8GG/	8d\	8g/	8b-\	8b-/	8GG/	8g/	8g/	8b-\	8r	8r
8GG\L	8G\L	8G\L	8r	8r	8r	8r	8G\L	8r	8r	8r	16g\LL	16b-\LL
.	.	.	.	.	.	.	.	.	.	.	16f\JJ	16a\JJ
8AA\	8A\	8A\	4r	4r	4r	4r	8A\	4r	4r	4r	16g\LL	16b-\LL
.	.	.	.	.	.	.	.	.	.	.	16a\	16cc\
8BB-\J	8B-\J	8B-\J	.	.	.	.	8B-\J	.	.	.	16g\	16b-\
.	.	.	.	.	.	.	.	.	.	.	16f\JJ	16a\JJ
8C\L	8c\L	8c\L	2r	2r	2r	2r	8c\L	2r	2r	8r	8c/	8g\L
8FF\	8F\	8F\	.	.	.	.	8F\	.	.	16ff\LL	8r	16a\LL
.	.	.	.	.	.	.	.	.	.	16ee\JJ	.	16g\JJ
8GG\	8G\	8G\	.	.	.	.	8G\	.	.	16ff\LL	4r	16a\LL
.	.	.	.	.	.	.	.	.	.	16gg\	.	16b-\
8AA\J	8A\J	8A\J	.	.	.	.	8A\J	.	.	16ff\	.	16a\
.	.	.	.	.	.	.	.	.	.	16ee\JJ	.	16g\JJ
=54	=54	=54	=54	=54	=54	=54	=54	=54	=54	=54	=54	=54
8BB-\L	8B-\L	8B-\L	1r	1r	1r	8r	8B-\L	1r	1r	8dd\L	1r	8f\
8EE\	8E\	8E\	.	.	.	16gg\LL	8E\	.	.	16ee\LL	.	8r
.	.	.	.	.	.	16ff\JJ	.	.	.	16dd\JJ	.	.
8FF\	8F\	8F\	.	.	.	16gg\LL	8F\	.	.	16ee\LL	.	4r
.	.	.	.	.	.	16aa\	.	.	.	16ff\	.	.
8GG\J	8G\J	8G\J	.	.	.	16gg\	8G\J	.	.	16ee\	.	.
.	.	.	.	.	.	16ff\JJ	.	.	.	16dd\JJ	.	.
8AA\L	8A\L	8A\L	.	.	.	8een\L	8A\L	.	.	8cc\	.	8r
8DD\	8D\	8D\	.	.	.	16ff\LL	8D\	.	.	8r	.	16dd\LL
.	.	.	.	.	.	16ee\JJ	.	.	.	.	.	16cc\JJ
8EE\	8E\	8E\	.	.	.	16ff\LL	8E\	.	.	4r	.	16dd\LL
.	.	.	.	.	.	16gg\	.	.	.	.	.	16ee\
8FF\J	8F\J	8F\J	.	.	.	16ff\	8F\J	.	.	.	.	16dd\
.	.	.	.	.	.	16ee\JJ	.	.	.	.	.	16cc\JJ
=55	=55	=55	=55	=55	=55	=55	=55	=55	=55	=55	=55	=55
8GG\L	8G\L	8G\L	1r	1r	1r	8dd\	8G\L	1r	1r	2r	8r	16bn\LL
.	.	.	.	.	.	.	.	.	.	.	.	16a\
8FF\	8F\	8F\	.	.	.	8r	8F\	.	.	.	16g\LL	16g\
.	.	.	.	.	.	.	.	.	.	.	16f\JJ	16a\JJ
8EE\	8E\	8E\	.	.	.	4r	8E\	.	.	.	16g\LL	16b\LL
.	.	.	.	.	.	.	.	.	.	.	16a\	16cc\
8DD\J	8D\J	8D\J	.	.	.	.	8D\J	.	.	.	16g\	16dd\
.	.	.	.	.	.	.	.	.	.	.	16f\JJ	16b\JJ
8CC/L	8C/L	8C/L	.	.	.	2r	8C/L	.	.	8r	8g/L	16cc\LL
.	.	.	.	.	.	.	.	.	.	.	.	16b-\
8BBB-/	8BB-/	8BB-/	.	.	.	.	8BB-/	.	.	16ee\LL	16c/LL	16cc\
.	.	.	.	.	.	.	.	.	.	16dd\JJ	16c/JJ	16b-\JJ
8AAA/	8AA/	8AA/	.	.	.	.	8AA/	.	.	16ee\LL	16c/LL	16cc\LL
.	.	.	.	.	.	.	.	.	.	16ff\	16c/	16dd\
8GGG/J	8GG/J	8GG/J	.	.	.	.	8GG/J	.	.	16gg\	16c/	16cc\
.	.	.	.	.	.	.	.	.	.	16ee\JJ	16c/JJ	16b-\JJ
=56	=56	=56	=56	=56	=56	=56	=56	=56	=56	=56	=56	=56
8FFF/L	8FF/L	8FF/L	1r	1r	1r	8r	8FF/L	1r	1r	8ff\L	8c/L	16a\LL
.	.	.	.	.	.	.	.	.	.	.	.	16g\
8AAA/	8AA/	8AA/	.	.	.	16ccc\LL	8AA/	.	.	8aa\	8F/	16a\
.	.	.	.	.	.	16ddd\JJ	.	.	.	.	.	16b-\JJ
8BBB-/	8BB-/	8BB-/	.	.	.	16ccc\LL	8BB-/	.	.	8ff\	8A/	16a\LL
.	.	.	.	.	.	16bb-\	.	.	.	.	.	16g\
8CC/J	8C/J	8C/J	.	.	.	16aa\	8C/J	.	.	8cc\J	8c/J	16f\
.	.	.	.	.	.	16gg\JJ	.	.	.	.	.	16e\JJ
8DD/L	8D/L	8D/L	.	.	.	8.ff\L	8D/L	.	.	8f/L	8A/L	16f\LL
.	.	.	.	.	.	.	.	.	.	.	.	16b-\
8BBB-/	8BB-/	8BB-/	.	.	.	.	8BB-/	.	.	8dd/J	8F/J	16a\
.	.	.	.	.	.	16gg\Jk	.	.	.	.	.	16g\JJ
8CC/	8C/	8C/	.	.	.	8.eet\L	8C/	.	.	8g/L	8c/L	8.g\L
8CCC/J	8CC/J	8CC/J	.	.	.	.	8CC/J	.	.	16a/LL	16c/LL	.
.	.	.	.	.	.	16ff\Jk	.	.	.	16b-/JJ	16c/JJ	16f\Jk
=57	=57	=57	=57	=57	=57	=57	=57	=57	=57	=57	=57	=57
4FFF/	4FF/	4FF/	8r	8r	8r	8ff\	4FF/	8r	8r	8a/	4A/	4f\
.	.	.	8A\L	8c/L	8f/L	8f/L	.	16a/LL	16cc\LL	16ff\LL	.	.
.	.	.	.	.	.	.	.	16g/JJ	16b-\JJ	16ee\JJ	.	.
8r	8r	8r	8c\	8f/	8a/	8a/	8r	16a/LL	16cc\LL	16ff\LL	4r	4r
.	.	.	.	.	.	.	.	16g/	16b-\	16ee\	.	.
8CC/	8C/	8C/	8e\J	8g/J	8cc/J	8cc/J	8C/	16a/	16cc\	16ff\	.	.
.	.	.	.	.	.	.	.	16g/JJ	16b-\JJ	16ee\JJ	.	.
8DD/L	8D/L	8D/L	8A\L	8f/L	8ff\L	8ff\L	8D/L	16f/LL	16a/LL	8ff\L	2r	2r
.	.	.	.	.	.	.	.	16e/	16g/	.	.	.
8AAA/	8AA/	8AA/	16f\LL	16a/LL	8cc\J	8cc\J	8AA/	16f/	16a/	8cc\J	.	.
.	.	.	16e\JJ	16g/JJ	.	.	.	16e/JJ	16g/JJ	.	.	.
8BBB-/	8BB-/	8BB-/	8d\L	16a/LL	8dd\L	8dd/L	8BB-/	8d/L	16a/LL	8dd\L	.	.
.	.	.	.	16g/	.	.	.	.	16g/	.	.	.
8CC/J	8C/J	8C/J	8e\J	16a/	16cc\LL	16cc/LL	8C/J	8e/J	16a/	16cc\LL	.	.
.	.	.	.	16g/JJ	16b-\JJ	16b-/JJ	.	.	16g/JJ	16b-\JJ	.	.
=58	=58	=58	=58	=58	=58	=58	=58	=58	=58	=58	=58	=58
4FFF/	4FF/	4FF/	4c\	4f/	4a/	4a/	4FF/	8c/	8f/	8a/	8r	8r
.	.	.	.	.	.	.	.	8c/L	8c/L	8f/L	16a\LL	16cc\LL
.	.	.	.	.	.	.	.	.	.	.	16g\JJ	16b-\JJ
4r	4r	4r	8r	8r	8r	8r	4r	8c/	8f/	8a/	16a\LL	16cc\LL
.	.	.	.	.	.	.	.	.	.	.	16g\	16b-\
.	.	.	8c\	8c/	8c/	8cc/	.	8e/J	8a/J	8cc/J	16a\	16cc\
.	.	.	.	.	.	.	.	.	.	.	16g\JJ	16b-\JJ
2r	2r	2r	8d\L	8d/L	8d/L	8dd/L	2r	8a/L	8dd\L	8ff\L	16f\LL	16a\LL
.	.	.	.	.	.	.	.	.	.	.	16g\	16b-\
.	.	.	8A\	8A/	8A/	8a/	.	8f/	8cc\	8cc\J	16a\	16cc\
.	.	.	.	.	.	.	.	.	.	.	16b-\JJ	16dd\JJ
.	.	.	8B-\	8B-/	8B-/	8b-/	.	8f/	8b-\	8dd\L	8g\L	16b-\LL
.	.	.	.	.	.	.	.	.	.	.	.	16a\
.	.	.	8c\J	8c/J	8c/J	8cc/J	.	8e/J	8g\J	16cc\LL	8c\J	16b-\
.	.	.	.	.	.	.	.	.	.	16b-\JJ	.	16g\JJ
=59	=59	=59	=59	=59	=59	=59	=59	=59	=59	=59	=59	=59
8r	8r	8r	8F\L	8f/L	8f\L	8f\L	8r	8c/L	8f/L	8a\L	8f/L	8a\L
8FFF/L	8FF/L	8FF/L	16a\LL	16cc/LL	16ff\LL	16ff\LL	8FF/L	16a/LL	16cc/LL	16ff\LL	8A/J	8c\
.	.	.	16b-\JJ	16dd/JJ	16gg\JJ	16gg\JJ	.	16g/JJ	16b-/JJ	16ee\JJ	.	.
8AAA/	8AA/	8AA/	16a\LL	16cc\LL	16ff\LL	16ff\LL	8AA/	16a/LL	16cc\LL	16ff\LL	8c/L	8f\
.	.	.	16b-\	16dd\	16gg\	16gg\	.	16g/	16b-\	16ee\	.	.
8CC/J	8C/J	8C/J	16a\	16cc\	16ff\	16ff\	8C/J	16a/	16cc\	16ff\	16c/LL	8g\J
.	.	.	16b-\JJ	16dd\JJ	16gg\JJ	16gg\JJ	.	16g/JJ	16b-\JJ	16ee\JJ	16c/JJ	.
8FF/L	8F/L	8F/L	4a\	4cc\	4ff\	4ff\	8F/L	4a/	4cc\	4ff\	8c/L	16a\LL
.	.	.	.	.	.	.	.	.	.	.	.	16b-\
8DD/	8D/	8D/	.	.	.	.	8D/	.	.	.	16f/LL	16a\
.	.	.	.	.	.	.	.	.	.	.	16g/JJ	16b-\JJ
8AAA/	8AA/	8AA/	4r	4r	4r	4r	8AA/	4r	4r	4r	16a\LL	16cc\LL
.	.	.	.	.	.	.	.	.	.	.	16g\	16b-\
8BBB-/J	8BB-/J	8BB-/J	.	.	.	.	8BB-/J	.	.	.	16f\	16a\
.	.	.	.	.	.	.	.	.	.	.	16g\JJ	16b-\JJ
=60	=60	=60	=60	=60	=60	=60	=60	=60	=60	=60	=60	=60
4CC/	4C/	4C/	8r	8r	8r	8r	4C/	8r	8r	8r	4c/	4g\
.	.	.	16ee\LL	16gg\LL	16ccc\LL	16ccc\LL	.	8e/L	8g\L	8cc\L	.	.
.	.	.	16dd\JJ	16ff\JJ	16bbn\JJ	16bbn\JJ	.	.	.	.	.	.
8r	8r	8r	16ee\LL	16gg\LL	16ccc\LL	16ccc\LL	8r	8g/	8cc\	8ee\	4r	4r
.	.	.	16dd\	16ff\	16bb\	16bbn\	.	.	.	.	.	.
8GGG/	8GG/	8GG/	16ee\	16gg\	16ccc\	16ccc\	8GG/	8bn/J	8dd\J	8gg\J	.	.
.	.	.	16dd\JJ	16ff\JJ	16bb\JJ	16bbn\JJ	.	.	.	.	.	.
8AAA/L	8AA/L	8AA/L	16cc\LL	16ee\LL	8ccc\L	8ccc\L	8AA/L	8e/L	8cc\L	8ccc\L	2r	2r
.	.	.	16bn\	16dd\	.	.	.	.	.	.	.	.
8EEE/	8EE/	8EE/	16cc\	16ee\	8gg\J	8gg\J	8EE/	16cc/LL	16ee\LL	8gg\J	.	.
.	.	.	16b\JJ	16dd\JJ	.	.	.	16b/JJ	16dd\JJ	.	.	.
8FFF/	8FF/	8FF/	8a\L	16ee\LL	8aa\L	8aa\L	8FF/	8a/L	16ee\LL	8aa\L	.	.
.	.	.	.	16dd\	.	.	.	.	16dd\	.	.	.
8GGG/J	8GG/J	8GG/J	8b\J	16ee\	16gg\LL	16gg\LL	8GG/J	8b/J	16ee\	16gg\LL	.	.
.	.	.	.	16dd\JJ	16ff\JJ	16ff\JJ	.	.	16dd\JJ	16ff\JJ	.	.
=61	=61	=61	=61	=61	=61	=61	=61	=61	=61	=61	=61	=61
8CCC/L	8CC/L	8CC/L	16g\LL	16cc\LL	16ee\LL	16ee\LL	8CC/L	4g/	4cc\	4ee\	8r	8r
.	.	.	16f\	16bn\	16dd\	16dd\	.	.	.	.	.	.
8GGG/	8GG/	8GG/	16e\	16cc\	16cc\	16cc\	8GG/	.	.	.	16c/LL	16g\LL
.	.	.	16d\JJ	16b\JJ	16dd\JJ	16dd\JJ	.	.	.	.	16c/JJ	16f\JJ
8CC/	8C/	8C/	8c\L	16cc\LL	16ee\LL	16ee\LL	8C/	8r	8r	8r	8c/L	16g\LL
.	.	.	.	16dd\JJ	16ff\JJ	16ff\JJ	.	.	.	.	.	16a\
8CCC/J	8CC/J	8CC/J	8cc\J	[8ee\J	[8gg\J	[8gg\J	8CC/J	8g/	8cc\	8ee\	8c/J	16b-\
.	.	.	.	.	.	.	.	.	.	.	.	16g\JJ
8FFF/L	8FF/L	8FF/L	2cc\	8ee\L]	8gg\L]	8gg\L]	8FF/L	4f/	4a/	4cc\	8c/L	16a\LL
.	.	.	.	.	.	.	.	.	.	.	.	16g\
8AAA/	8AA/	8AA/	.	16dd\LL	16ff\LL	16ff\LL	8AA/	.	.	.	8c/J	16a\
.	.	.	.	16cc\JJ	16ee\JJ	16ee\JJ	.	.	.	.	.	16g\JJ
8DD/	8D/	8D/	.	[4dd\	[4ff\	[4ff\	8D/	8r	8r	8r	16f\LL	16a\LL
.	.	.	.	.	.	.	.	.	.	.	16g\	16bn\
8DDD/J	8DD/J	8DD/J	.	.	.	.	8DD/J	8a/	8dd\	8ff\	16a\	16cc\
.	.	.	.	.	.	.	.	.	.	.	16f\JJ	16a\JJ
=62	=62	=62	=62	=62	=62	=62	=62	=62	=62	=62	=62	=62
8GGG/L	8GG/L	8GG/L	4bn\	2dd\]	8ff\L]	8ff\L]	8GG/L	4g/	4bn\	4dd\	16g\LL	16bn\LL
.	.	.	.	.	.	.	.	.	.	.	16f\	16a\
8BBBn/	8BBn/	8BBn/	.	.	16ee\LL	16ee\LL	8BBn/	.	.	.	16g\	16b\
.	.	.	.	.	16dd\JJ	16dd\JJ	.	.	.	.	16f\JJ	16a\JJ
8EE/	8E/	8E/	[4g\	.	[4ee\	[4ee\	8E/	8r	8r	8r	16g\LL	16b\LL
.	.	.	.	.	.	.	.	.	.	.	16a\	16cc\
8EEE/J	8EE/J	8EE/J	.	.	.	.	8EE/J	8bn\	8ee\	8gg\	16bn\	16dd\
.	.	.	.	.	.	.	.	.	.	.	16g\JJ	16b\JJ
8AAA/L	8AA/L	8AA\L	16g\LL]	16cc\LL	16ee\LL]	16ee\LL]	8AA\L	16a/LL	16cc\LL	8.ee\L	8.a\L	8.cc\L
.	.	.	16e\	16bn\	16dd\	16dd\	.	16b/	16b\	.	.	.
8FF/	8F/	8F\	16a\	16cc\	16ee\	16ee\	8F\	16a/	16cc\	.	.	.
.	.	.	16g\JJ	16dd\JJ	16ff\JJ	16ff\JJ	.	16g/JJ	16dd\JJ	16ff\Jk	16b\Jk	16dd\Jk
8GG/	8G/	8G\	16f\LL	8g/L	8.ddT\L	8.ddT/L	8G\	16f/LL	8g/L	8.ddT\L	8.g\L	8.bt\L
.	.	.	16e\	.	.	.	.	16e/	.	.	.	.
8GGG/J	8GG/J	8GG\J	16f\	8g/J	.	.	8GG\J	16f/	8g/J	.	.	.
.	.	.	16d\JJ	.	16cc\Jk	16cc/Jk	.	16d/JJ	.	16cc\Jk	16g\Jk	16cc\Jk
=63	=63	=63	=63	=63	=63	=63	=63	=63	=63	=63	=63	=63
4CC/	4C/	4C/	4e\	4g/	4cc\	4cc/	4C/	8e/	8g/	8cc\	4g\	4cc\
.	.	.	.	.	.	.	.	8cc/L	16ee\LL	16gg\LL	.	.
.	.	.	.	.	.	.	.	.	16dd\JJ	16ff\JJ	.	.
4r	4r	4r	4r	4r	4r	4r	4r	8b-/	16ee\LL	16gg\LL	4r	4r
.	.	.	.	.	.	.	.	.	16dd\	16ff\	.	.
.	.	.	.	.	.	.	.	8a/J	16ee\	16gg\	.	.
.	.	.	.	.	.	.	.	.	16ff\JJ	16aa\JJ	.	.
2r	2r	2r	2r	2r	2r	2r	2r	8g/L	16gg\LL	16bb-\LL	2r	2r
.	.	.	.	.	.	.	.	.	16ff\	16aa\	.	.
.	.	.	.	.	.	.	.	8f/	16gg\	16bb-\	.	.
.	.	.	.	.	.	.	.	.	16aa\JJ	16ccc\JJ	.	.
.	.	.	.	.	.	.	.	8e/	16gg\LL	16bb-\LL	.	.
.	.	.	.	.	.	.	.	.	16aa\	16ccc\	.	.
.	.	.	.	.	.	.	.	8c/J	16gg\	16bb-\	.	.
.	.	.	.	.	.	.	.	.	16aa\JJ	16ccc\JJ	.	.
=64	=64	=64	=64	=64	=64	=64	=64	=64	=64	=64	=64	=64
4FFF/	4FF/	4FF/	8r	8r	8r	8r	4FF/	8f/	8ff\	8aa\	1r	1r
.	.	.	8f\L	16cc\LL	16aa\LL	16aa\LL	.	8r	8r	8r	.	.
.	.	.	.	16b-\JJ	16gg\JJ	16gg\JJ	.	.	.	.	.	.
4r	4r	4r	8e-\	16cc\LL	16aa\LL	16aa\LL	4r	4r	4r	4r	.	.
.	.	.	.	16b-\	16gg\	16gg\	.	.	.	.	.	.
.	.	.	8d\J	16cc\	16aa\	16aa\	.	.	.	.	.	.
.	.	.	.	16dd\JJ	16bb-\JJ	16bb-\JJ	.	.	.	.	.	.
2r	2r	2r	8c/L	16ee-\LL	16ccc\LL	16ccc\LL	2r	2r	2r	2r	.	.
.	.	.	.	16dd\	16bb-\	16bb-\	.	.	.	.	.	.
.	.	.	8B-/	16ee-\	16ccc\	16ccc\	.	.	.	.	.	.
.	.	.	.	16ff\JJ	16ddd\JJ	16ddd\JJ	.	.	.	.	.	.
.	.	.	8A/	16ee-\LL	16ccc\LL	16ccc\LL	.	.	.	.	.	.
.	.	.	.	16ff\	16ddd\	16ddd\	.	.	.	.	.	.
.	.	.	8F/J	16ee-\	16ccc\	16ccc\	.	.	.	.	.	.
.	.	.	.	16ff\JJ	16ddd\JJ	16ddd\JJ	.	.	.	.	.	.
=65	=65	=65	=65	=65	=65	=65	=65	=65	=65	=65	=65	=65
8BBB-\L	8BB-\L	8BB-\L	8B-/	8dd\	8bb-\	8bb-\	8BB-\L	4r	4r	4r	4r	2ff\
16FF\LL	16F\LL	16F\LL	8a-\L	8dd\L	8ff\L	8ff\L	16F\LL	.	.	.	.	.
16EE-\JJ	16E-\JJ	16E-\JJ	.	.	.	.	16E-\JJ	.	.	.	.	.
16FF\LL	16F\LL	16F\LL	8dd\	8ff\	8aa-\	8aa-\	16F\LL	8r	8r	8r	2dd\	.
16EE-\	16E-\	16E-\	.	.	.	.	16E-\	.	.	.	.	.
16FF\	16F\	16F\	8ff\J	8aa-\J	8ddd\J	8ddd\J	16F\	8a-/	8dd\	8aa-\	.	.
16GG\JJ	16G\JJ	16G\JJ	.	.	.	.	16G\JJ	.	.	.	.	.
16AA-\LL	16A-\LL	16A-\LL	8r	8r	8r	8r	16A-\LL	8a-/L	8dd\L	8ee-\L	.	2ee-\
16BB-\	16B-\	16B-\	.	.	.	.	16B-\	.	.	.	.	.
16EE-\	16E-\	16E-\	8g\L	8b-\L	8ee-\L	8ee-\L	16E-\	8g/J	8ee-\J	8gg\J	.	.
16DD\JJ	16D\JJ	16D\JJ	.	.	.	.	16D\JJ	.	.	.	.	.
16EE-\LL	16E-\LL	16E-\LL	8cc\	8ee-\	8gg\	8gg\	16E-\LL	8r	8r	8r	[4cc\	.
16DD\	16D\	16D\	.	.	.	.	16D\	.	.	.	.	.
16EE-\	16E-\	16E-\	8ee-\J	8gg\J	8ccc\J	8ccc\J	16E-\	8g/	8cc\	8gg\	.	.
16FF\JJ	16F\JJ	16F\JJ	.	.	.	.	16F\JJ	.	.	.	.	.
=66	=66	=66	=66	=66	=66	=66	=66	=66	=66	=66	=66	=66
16GG\LL	16G\LL	16G\LL	8r	8r	8r	8r	16G\LL	8g/L	8cc\L	8dd\L	4cc\]	2dd\
16AA\	16A\	16A\	.	.	.	.	16A\	.	.	.	.	.
16DD\	16D\	16D\	8f\L	8a\L	8dd\L	8dd\L	16D\	8f/J	8dd\J	8ff\J	.	.
16CC\JJ	16C\JJ	16C\JJ	.	.	.	.	16C\JJ	.	.	.	.	.
16DD\LL	16D\LL	16D\LL	8b-\	8dd\	8ff\	8ff\	16D\LL	8r	8r	8r	[4b-\	.
16CC\	16C\	16C\	.	.	.	.	16C\	.	.	.	.	.
16DD\	16D\	16D\	8dd\J	8ff\J	8bb-\J	8bb-\J	16D\	8f/	8b-\	8ff\	.	.
16EE-\JJ	16E-\JJ	16E-\JJ	.	.	.	.	16E-\JJ	.	.	.	.	.
8FF/L	8F/L	8F/L	4r	4r	4r	4r	8F/L	8f/L	8b-\L	8cc\L	8b-\L]	16cc\LL
.	.	.	.	.	.	.	.	.	.	.	.	16b-\
8CC/	8C/	8C/	.	.	.	.	8C/	8a/J	8cc\J	8ee-\J	16a\LL	16cc\
.	.	.	.	.	.	.	.	.	.	.	16g\JJ	16b-\JJ
8AAA/	8AA/	8AA/	[4f\	[4a/	[4cc\	[4cc/	8AA/	4r	4r	4r	16a\LL	16cc\LL
.	.	.	.	.	.	.	.	.	.	.	16b-\	16dd\
8FFF/J	8FF/J	8FF/J	.	.	.	.	8FF/J	.	.	.	16cc\	16ee-\
.	.	.	.	.	.	.	.	.	.	.	16a\JJ	16cc\JJ
=67	=67	=67	=67	=67	=67	=67	=67	=67	=67	=67	=67	=67
16BBB-\LL	16BB-\LL	16BB-\LL	8f\L]	8a/L]	8cc/L]	8cc/L]	16BB-\LL	1b-\	1dd\	2ff\	[2b-\	[2dd\
16FF\	16F\	16F\	.	.	.	.	16F\	.	.	.	.	.
16BB-\	16B-\	16B-\	8F\	8B-/	8d/	8d/	16B-\	.	.	.	.	.
16AA\JJ	16A\JJ	16A\JJ	.	.	.	.	16A\JJ	.	.	.	.	.
16BB-\LL	16B-\LL	16B-\LL	8B-\	8d/	8f/	8f/	16B-\LL	.	.	.	.	.
16AA\	16A\	16A\	.	.	.	.	16A\	.	.	.	.	.
16BB-\	16B-\	16B-\	8d\J	8f/J	8b-/J	8b-/J	16B-\	.	.	.	.	.
16AA\JJ	16A\JJ	16A\JJ	.	.	.	.	16A\JJ	.	.	.	.	.
8GG/L	8G/L	8G/L	[2g\	[2b-/	[2dd\	[2dd/	8G/L	.	.	[2gg\	16b-\LL]	16dd\LL]
.	.	.	.	.	.	.	.	.	.	.	16a\	16cc\
8DD/	8D/	8D/	.	.	.	.	8D/	.	.	.	16b-\	16dd\
.	.	.	.	.	.	.	.	.	.	.	16a\JJ	16cc\JJ
8BBB-/	8BB-/	8BB-/	.	.	.	.	8BB-/	.	.	.	8g\L	16dd\LL
.	.	.	.	.	.	.	.	.	.	.	.	16cc\
8GGG/J	8GG/J	8GG/J	.	.	.	.	8GG/J	.	.	.	8f\J	16b-\
.	.	.	.	.	.	.	.	.	.	.	.	16a\JJ
=68	=68	=68	=68	=68	=68	=68	=68	=68	=68	=68	=68	=68
16CC\LL	16C\LL	16C\LL	8g\L]	8b-/L]	8dd/L]	8dd/L]	16C\LL	1cc\	1ee\	2gg\]	8c/L	16g\LL
16GG\	16G\	16G\	.	.	.	.	16G\	.	.	.	.	16f\
16C\	16c\	16c\	8G\	8c/	8e/	8e/	16c\	.	.	.	16c/LL	16g\
16BB-\JJ	16B-\JJ	16B-\JJ	.	.	.	.	16B-\JJ	.	.	.	16c/JJ	16a\JJ
16C\LL	16c\LL	16c\LL	8c\	8e/	8g/	8g/	16c\LL	.	.	.	8c\L	16g\LL
16BB-\	16B-\	16B-\	.	.	.	.	16B-\	.	.	.	.	16b-\
16C\	16c\	16c\	8e\J	8g/J	8cc/J	8cc/J	16c\	.	.	.	16f\LL	16a\
16BB-\JJ	16B-\JJ	16B-\JJ	.	.	.	.	16B-\JJ	.	.	.	16g\JJ	16b-\JJ
8AA\L	8A\L	8A\L	[2a\	[2cc\	[2ee\	[2ee\	8A\L	.	.	[2aa\	16a\LL	16cc\LL
.	.	.	.	.	.	.	.	.	.	.	16g\	16b-\
8EE\	8E\	8E\	.	.	.	.	8E\	.	.	.	16a\	16cc\
.	.	.	.	.	.	.	.	.	.	.	16g\JJ	16b-\JJ
8CC\	8C\	8C\	.	.	.	.	8C\	.	.	.	16a\LL	16cc\LL
.	.	.	.	.	.	.	.	.	.	.	16g\	16b-\
8AAA\J	8AA\J	8AA\J	.	.	.	.	8AA\J	.	.	.	16a\	16cc\
.	.	.	.	.	.	.	.	.	.	.	16g\JJ	16b-\JJ
=69	=69	=69	=69	=69	=69	=69	=69	=69	=69	=69	=69	=69
16DD\LL	16D\LL	16D\LL	8a\L]	8cc/L]	8ee\L]	8ee/L]	16D\LL	2dd\	2ff\	2aa\]	8f\L	16a\LL
16AA\	16A\	16A\	.	.	.	.	16A\	.	.	.	.	16g\
16D\	16d\	16d\	8A\	8d/	8f\	8f/	16d\	.	.	.	16f\LL	16a\
16C\JJ	16c\JJ	16c\JJ	.	.	.	.	16c\JJ	.	.	.	16f\JJ	16b-\JJ
16D\LL	16d\LL	16d\LL	8d\	8f/	8a\	8a/	16d\LL	.	.	.	16f\LL	16a\LL
16C\	16c\	16c\	.	.	.	.	16c\	.	.	.	16a\	16cc\
16D\	16d\	16d\	8f\J	8a/J	8dd\J	8dd/J	16d\	.	.	.	16g\	16b-\
16C\JJ	16c\JJ	16c\JJ	.	.	.	.	16c\JJ	.	.	.	16a\JJ	16cc\JJ
8BBn\L	8Bn\L	8Bn\L	[4a-\	[4dd\	[4ff\	[4ff\	8Bn\L	8r	8r	8r	16f\LL	16dd\LL
.	.	.	.	.	.	.	.	.	.	.	16g\	16cc\
8AA-\	8A-\	8A-\	.	.	.	.	8A-\	8d/L	8f/L	8bn\L	16f\	16dd\
.	.	.	.	.	.	.	.	.	.	.	16g\JJ	16cc\JJ
8FF\	8F\	8F\	16a-\LL]	16dd\LL]	16ff\LL]	16ff\LL]	8F\	8f/	8bn/	8dd\	[4f\	[4dd\
.	.	.	16g\	16cc\	16ee\	16ee\	.	.	.	.	.	.
8DD\J	8D\J	8D\J	16a-\	16dd\	16ff\	16ff\	8D\J	8bn/J	8dd/J	8ff\J	.	.
.	.	.	16g\JJ	16cc\JJ	16ee\JJ	16ee\JJ	.	.	.	.	.	.
=70	=70	=70	=70	=70	=70	=70	=70	=70	=70	=70	=70	=70
8BBBn\L	8BBn\L	8BBn\L	[4a-\	[4dd\	[4ff\	[4ff\	8BBn\L	8dd\L	8ff\L	8aa-\L	16f\LL]	16dd\LL]
.	.	.	.	.	.	.	.	.	.	.	16g\	16cc\
8FF\	8F\	8F\	.	.	.	.	8F\	8f\	8bn\	8dd\	16f\	16dd\
.	.	.	.	.	.	.	.	.	.	.	16g\JJ	16cc\JJ
8DD\	8D\	8D\	16a-\LL]	16dd\LL]	16ff\LL]	16ff\LL]	8D\	8a-\	8dd\	8ff\	[4f\	[4dd\
.	.	.	16g\	16cc\	16ee\	16ee\	.	.	.	.	.	.
8BBB\J	8BB\J	8BB\J	16a-\	16dd\	16ff\	16ff\	8BB\J	8dd\J	8ff\J	8aa-\J	.	.
.	.	.	16f\JJ	16cc\JJ	16ee\JJ	16ee\JJ	.	.	.	.	.	.
8GGG/L	8GG/L	8GG/L	4g\	4bn\	4ff\	4ff\	8GG/L	8dd\L	8ff\L	8bbn\L	16f\LL]	16dd\LL]
.	.	.	.	.	.	.	.	.	.	.	16g\	16cc\
8DD/	8D/	8D/	.	.	.	.	8D/	8ff\	8aa-\	8ddd\	16f\	16dd\
.	.	.	.	.	.	.	.	.	.	.	16g\JJ	16cc\JJ
8BBB/	8BB/	8BB/	8r	8r	8r	8r	8BB/	8bn\	8dd\	8gg\	16f\LL	16dd\LL
.	.	.	.	.	.	.	.	.	.	.	16a\	16ee\
8GGG/J	8GG/J	8GG/J	8g\	8b\	8dd\	8dd\	8GG/J	8dd\J	8gg\J	8bb\J	16g\	16cc\
.	.	.	.	.	.	.	.	.	.	.	16f\JJ	16dd\JJ
=71	=71	=71	=71	=71	=71	=71	=71	=71	=71	=71	=71	=71
4BB-\	4B-\	4B-\	8c\L	8g\L	8ee\L	8ee\L	4B-\	4ee\	4gg\	4ccc\	16g\LL	16ee\LL
.	.	.	.	.	.	.	.	.	.	.	16f\	16dd\
.	.	.	8cc\	8ee\	8gg\	8gg\	.	.	.	.	16g\	16ee\
.	.	.	.	.	.	.	.	.	.	.	16f\JJ	16dd\JJ
8r	8r	8r	8e\	8g\	8cc\	8cc\	8r	8r	8r	8r	16g\LL	16ee\LL
.	.	.	.	.	.	.	.	.	.	.	16a\	16ff\
8BBB-/	8BB-/	8BB-/	8g\J	8cc\J	8ee\J	8ee\J	8BB-/	8cc\	8ee\	8gg\	16f\	16dd\
.	.	.	.	.	.	.	.	.	.	.	16g\JJ	16ee\JJ
8AAA/L	8AA/L	8AA/L	8cc\L	16ff\LL	16aa\LL	16aa\LL	8AA/L	8cc\L	16ff\LL	16aa\LL	8a/L	16ff\LL
.	.	.	.	16ee\	16gg\	16gg\	.	.	16ee\	16gg\	.	16b-\
8BBB-/	8BB-/	8BB-/	16dd\LL	16dd\	16ff\	16ff\	8BB-/	16dd\LL	16dd\	16ff\	8F/	16a\
.	.	.	16cc\JJ	16ee\JJ	16gg\JJ	16gg\JJ	.	16cc\JJ	16ee\JJ	16gg\JJ	.	16g\JJ
8CC/	8C/	8C/	16b-\LL	8.cc\L	8.eet\L	8.eet\L	8C/	16b-/LL	8.cc\L	8.eet\L	8A/	8.gT\L
.	.	.	16a\	.	.	.	.	16a/	.	.	.	.
8CCC/J	8CC/J	8CC/J	16b-\	.	.	.	8CC/J	16b-/	.	.	8c/J	.
.	.	.	16g\JJ	16cc\Jk	16ff\Jk	16ff\Jk	.	16g/JJ	16cc\Jk	16ff\Jk	.	16f\Jk
=72	=72	=72	=72	=72	=72	=72	=72	=72	=72	=72	=72	=72
4FFF/	4FF/	4FF/	8a\	8cc\	8ff\	8ff\	4FF/	8a/	8cc\	8ff\	8A/	4f\
.	.	.	8A\L	8c/L	8f/L	8f/L	.	16a/LL	16cc\LL	16ff\LL	8F/L	.
.	.	.	.	.	.	.	.	16g/JJ	16b-\JJ	16ee\JJ	.	.
8r	8r	8r	8c\	8f/	8a/	8a/	8r	16a/LL	16cc\LL	16ff\LL	8A/	4r
.	.	.	.	.	.	.	.	16g/	16b-\	16ee\	.	.
8CC/	8C/	8C/	8e\J	8g/J	8cc/J	8cc/J	8C/	16a/	16cc\	16ff\	8c/J	.
.	.	.	.	.	.	.	.	16g/JJ	16b-\JJ	16ee\JJ	.	.
8DD/L	8D/L	8D/L	8A\L	8f/L	8ff\L	8ff\L	8D/L	16f/LL	16a/LL	8ff\L	8f/L	2r
.	.	.	.	.	.	.	.	16e/	16g/	.	.	.
8AAA/	8AA/	8AA/	16f\LL	16a/LL	8cc\J	8cc\J	8AA/	16f/	16a/	8cc\J	8c/J	.
.	.	.	16e\JJ	16g/JJ	.	.	.	16e/JJ	16g/JJ	.	.	.
8BBB-/	8BB-/	8BB-/	8d\L	16a/LL	8dd\L	8dd/L	8BB-/	8d/L	16a/LL	8dd\L	16A/LL	.
.	.	.	.	16g/	.	.	.	.	16g/	.	16F/JJ	.
8CC/J	8C/J	8C/J	8e\J	16a/	16cc\LL	16cc/LL	8C/J	8e/J	16a/	16cc\LL	8c/J	.
.	.	.	.	16g/JJ	16b-\JJ	16b-/JJ	.	.	16g/JJ	16b-\JJ	.	.
=73	=73	=73	=73	=73	=73	=73	=73	=73	=73	=73	=73	=73
8FFF/L	8FF/L	8FF/L	8c\L	8f/L	16a/LL	16a/LL	8FF/L	8c/L	8f/L	16a/LL	(12c/L	8r
.	.	.	.	.	16g/	16g/	.	.	.	16g/	.	.
.	.	.	.	.	.	.	.	.	.	.	12c/	.
16FF/LL	16F/LL	16F/LL	8A\	8c/J	16f/	16f/	16F/LL	8cc/	16a/LL	16f/	.	8c\L
.	.	.	.	.	.	.	.	.	.	.	12c/J)	.
16EE/JJ	16E/JJ	16E/JJ	.	.	16g/JJ	16g/JJ	16E/JJ	.	16g/JJ	16g/JJ	.	.
16FF\LL	16F\LL	16F\LL	8c\	16f/LL	16a/LL	16a/LL	16F\LL	8a/	16f/LL	16a/LL	(12c/L	8f\
16EE\	16E\	16E\	.	16g/	16bn/	16bn/	16E\	.	16g/	16bn/	.	.
.	.	.	.	.	.	.	.	.	.	.	12c/	.
16FF\	16F\	16F\	8f\J	16a/	16a/	16a/	16F\	8f/J	16a/	16a/	.	8a\J
.	.	.	.	.	.	.	.	.	.	.	12c/J)	.
16DD\JJ	16D\JJ	16D\JJ	.	16f/JJ	16b/JJ	16bn/JJ	16D\JJ	.	16f/JJ	16b/JJ	.	.
8EE/L	8E/L	8E/L	16e\LL	8g/L	16cc\LL	16cc/LL	8E/L	16e/LL	8g/L	16cc\LL	(8.c/L	8cc\L
.	.	.	16f\	.	16dd\	16dd/	.	16f/	.	16dd\	.	.
8CC/	8C/	8C/	16g\	8cc/	16ee\	16ee/	8C/	16g/	8cc/	16ee\	.	8g\J
.	.	.	16a\JJ	.	16cc\JJ	16cc/JJ	.	16a/JJ	.	16cc\JJ	16g/Jk)	.
8DD/	8D/	8D/	8f\L	8cc/	16ff\LL	16ff\LL	8D/	8f/L	8cc/	16ff\LL	4r	(16g\LL
.	.	.	.	.	16ee\	16ee\	.	.	.	16ee\	.	16c\JJ)
8GGG/J	8GG/J	8GG/J	8g\J	8bn/J	16ff\	16ff\	8GG/J	8g/J	8bn/J	16ff\	.	8g\J
.	.	.	.	.	16gg\JJ	16gg\JJ	.	.	.	16gg\JJ	.	.
=74	=74	=74	=74	=74	=74	=74	=74	=74	=74	=74	=74	=74
8CC/L	8C/L	8C/L	8g\L	16cc\LL	16ee\LL	16ee\LL	8C/L	8g/L	16cc\LL	16ee\LL	1r	(12g\L
.	.	.	.	16dd\	16ff\	16ff\	.	.	16dd\	16ff\	.	.
.	.	.	.	.	.	.	.	.	.	.	.	12g\
8EE/	8E/	8E/	8g\	16cc\	16gg\	16gg\	8E/	8g/J	16cc\	16gg\	.	.
.	.	.	.	.	.	.	.	.	.	.	.	12g\J)
.	.	.	.	16dd\JJ	16ff\JJ	16ff\JJ	.	.	16dd\JJ	16ff\JJ	.	.
8CC/	8C/	8C/	8e\	[4ee\	16gg\LL	16gg\LL	8C/	4.cc\	[4ee\	16gg\LL	.	(8.g\L
.	.	.	.	.	16ff\	16ff\	.	.	.	16ff\	.	.
8BBBn/J	8BBn/J	8BBn/J	8d\J	.	16gg\	16gg\	8BBn/J	.	.	16gg\	.	.
.	.	.	.	.	16ff\JJ	16ff\JJ	.	.	.	16ff\JJ	.	16cc\Jk)
8AAA/L	8AA/L	8AA/L	8c\L	8ee\L]	16gg\LL	16gg\LL	8AA/L	.	8ee\L]	16gg\LL	.	2r
.	.	.	.	.	16cc\	16cc\	.	.	.	16cc\	.	.
8DD/	8D/	8D/	8a\	16dd\LL	16ff\	16ff\	8D/	8a/L	16dd\LL	16ff\	.	.
.	.	.	.	16cc\JJ	16ee\JJ	16ee\JJ	.	.	16cc\JJ	16ee\JJ	.	.
8BBB/	8BB/	8BB/	8d\	[4dd\	16ff\LL	16ff\LL	8BB/	8g/	[4dd\	16ff\LL	.	.
.	.	.	.	.	16ee\	16ee\	.	.	.	16ee\	.	.
8AAA/J	8AA/J	8AA/J	8c\J	.	16ff\	16ff\	8AA/J	8a/J	.	16ff\	.	.
.	.	.	.	.	16ee\JJ	16ee\JJ	.	.	.	16ee\JJ	.	.
=75	=75	=75	=75	=75	=75	=75	=75	=75	=75	=75	=75	=75
8GGG/L	8GG/L	8GG/L	8Bn\L	8dd\L]	16ff\LL	16ff\LL	8GG/L	8bn/L	8dd\L]	16ff\LL	1r	1r
.	.	.	.	.	16bn\	16bn\	.	.	.	16bn\	.	.
8CC/	8C/	8C/	8g\	16cc\LL	16ee\	16ee\	8C/	8e/J	16cc\LL	16ee\	.	.
.	.	.	.	16bn\JJ	16dd\JJ	16dd\JJ	.	.	16bn\JJ	16dd\JJ	.	.
8AAA/	8AA/	8AA/	8c\	[4cc\	16ee\LL	16ee\LL	8AA/	4.a/	[4cc\	16ee\LL	.	.
.	.	.	.	.	16dd\	16dd\	.	.	.	16dd\	.	.
8GGG/J	8GG/J	8GG/J	8B-\J	.	16ee\	16ee\	8GG/J	.	.	16ee\	.	.
.	.	.	.	.	16dd\JJ	16dd\JJ	.	.	.	16dd\JJ	.	.
4FFF/	4FF/	4FF/	8A\L	16cc\LL]	16ee\LL	16ee\LL	4FF/	.	16cc\LL]	16ee\LL	.	.
.	.	.	.	16dd\	16a\	16a\	.	.	16dd\	16a\	.	.
.	.	.	8c\	16cc\	16aa\	16aa\	.	8f/L	16cc\	16aa\	.	.
.	.	.	.	16b-\JJ	16gg\JJ	16gg\JJ	.	.	16b-\JJ	16gg\JJ	.	.
8r	8r	8r	8f\	16a/LL	16ff\LL	16ff\LL	8r	8c/	16a/LL	16ff\LL	.	.
.	.	.	.	16g/	16ee\	16ee\	.	.	16g/	16ee\	.	.
[8FF\	[8F\	[8F\	8a\J	16f/	16dd\	16dd\	[8F\	8a/J	16f/	16dd\	.	.
.	.	.	.	16e/JJ	16cc\JJ	16cc\JJ	.	.	16e/JJ	16cc\JJ	.	.
=76	=76	=76	=76	=76	=76	=76	=76	=76	=76	=76	=76	=76
16FF\LL]	16F\LL]	16F\LL]	4g\	4d/	16bn/LL	16bn/LL	16F\LL]	4g/	4d/	16bn/LL	1r	1r
16GG\	16G\	16G\	.	.	16a/	16a/	16G\	.	.	16a/	.	.
16FF\	16F\	16F\	.	.	16g/	16g/	16F\	.	.	16g/	.	.
16EE\JJ	16E\JJ	16E\JJ	.	.	16a/JJ	16a/JJ	16E\JJ	.	.	16a/JJ	.	.
16DD/LL	16D/LL	16D/LL	8r	8r	16b\LL	16bn/LL	16D/LL	8r	8r	16b\LL	.	.
16CC/	16C/	16C/	.	.	16cc\	16cc/	16C/	.	.	16cc\	.	.
16BBBn/	16BBn/	16BBn/	8g\	8ff\	16dd\	16dd/	16BBn/	8g/	8ff\	16dd\	.	.
16AAA/JJ	16AA/JJ	16AA/JJ	.	.	16ee\JJ	16ee/JJ	16AA/JJ	.	.	16ee\JJ	.	.
8GGG/L	8GG/L	8GG/L	8d\L	8bn\L	8.ff\L	8.ff\L	8GG/L	8d/L	8bn\L	8.ff\L	.	.
8CC/	8C/	8C/	16e\LL	16cc\LL	.	.	8C/	16e/LL	16cc\LL	.	.	.
.	.	.	16f\JJ	16dd\JJ	16gg\Jk	16gg\Jk	.	16f/JJ	16dd\JJ	16gg\Jk	.	.
8GG/	8G/	8G/	8g\L	8.bt/L	8.ddT\L	8.ddT/L	8G/	8g/L	8.bt\L	8.ddT\L	.	.
8GGG/J	8GG/J	8GG/J	8d\J	.	.	.	8GG/J	8d/J	.	.	.	.
.	.	.	.	16g/Jk	16cc\Jk	16cc/Jk	.	.	16cc\Jk	16cc\Jk	.	.
=77	=77	=77	=77	=77	=77	=77	=77	=77	=77	=77	=77	=77
8CC/	8C/	8C/	8e\	8g/	8cc\	8cc/	8C/	8e/	8cc\	8cc\	1r	1r
8r	8r	8r	8r	8r	8r	8r	16c\LL	8r	8e/L	8g/L	.	.
.	.	.	.	.	.	.	16d\JJ	.	.	.	.	.
4r	4r	4r	4r	4r	4r	4r	16c\LL	4r	8f#/	8a/	.	.
.	.	.	.	.	.	.	16B-\	.	.	.	.	.
.	.	.	.	.	.	.	16A\	.	8g/J	8b-/J	.	.
.	.	.	.	.	.	.	16G\JJ	.	.	.	.	.
8r	8r	8r	8r	8r	8r	8r	8F#\L	8r	8a/L	8cc\L	.	.
8DD\L	8D\L	8D\L	8d/L	8f#/L	16dd\LL	16dd\LL	8D\	16dd\LL	8f#/	16dd\LL	.	.
.	.	.	.	.	16ee-\JJ	16ee-\JJ	.	16cc\JJ	.	16ee-\JJ	.	.
8EE\	8E\	8E\	8G/	8g/	16dd\LL	16dd/LL	8E\	8b-/L	8g/	16dd\LL	.	.
.	.	.	.	.	16cc\	16cc/	.	.	.	16cc\	.	.
8FF#\J	8F#\J	8F#\J	8d/J	8a/J	16b-\	16b-/	8F#\J	8a/J	8a/J	16b-\	.	.
.	.	.	.	.	16a\JJ	16a/JJ	.	.	.	16a\JJ	.	.
=78	=78	=78	=78	=78	=78	=78	=78	=78	=78	=78	=78	=78
8GG\	8G\	16G\LL	8g\	8d/	8b-\	8b-/	8G\	8g/	8d/	8b-\	1r	1r
.	.	16D\	.	.	.	.	.	.	.	.	.	.
8r	8r	16G\	8r	8b-/L	8dd\L	8dd\L	8r	8r	8r	8r	.	.
.	.	16A\JJ	.	.	.	.	.	.	.	.	.	.
4r	4r	16G\LL	4r	8g/	8ee\	8een\	4r	4r	4r	4r	.	.
.	.	16F\	.	.	.	.	.	.	.	.	.	.
.	.	16E\	.	8a/J	8ff\J	8ff\J	.	.	.	.	.	.
.	.	16D\JJ	.	.	.	.	.	.	.	.	.	.
8r	8r	8C/L	8r	8b-\L	8gg\L	8gg\L	8r	8r	8r	8r	.	.
8AAA/L	8AA/L	8AA/	8e\L	8cc\	16aa\LL	16aa\LL	8AA/L	16a/LL	8cc\L	16aa\LL	.	.
.	.	.	.	.	16bb-\JJ	16bb-\JJ	.	16g/JJ	.	16bb-\JJ	.	.
8BBB-/	8BB-/	8BB-/	8d\	8dd\	16aa\LL	16aa\LL	8BB-/	8f/L	8dd\	16aa\LL	.	.
.	.	.	.	.	16gg\	16gg\	.	.	.	16gg\	.	.
8CC/J	8C/J	8C/J	8a\J	8ee\J	16ff\	16ff\	8C/J	8e/J	8ee\J	16ff\	.	.
.	.	.	.	.	16ee\JJ	16ee\JJ	.	.	.	16ee\JJ	.	.
=79	=79	=79	=79	=79	=79	=79	=79	=79	=79	=79	=79	=79
8DD/L	8D/L	8D/L	8A/L	8a\L	16ff\LL	16ff\LL	8D/L	8d/L	8a\L	16ff\LL	1r	2r
.	.	.	.	.	16dd\	16dd\	.	.	.	16dd\	.	.
8GGG/	8GG/	8GG/	8B-/	16dd\LL	16bb-\	16bb-\	8GG/	8d/	16dd\LL	16bb-\	.	.
.	.	.	.	16ee-\JJ	16ccc\JJ	16ccc\JJ	.	.	16ee-\JJ	16ccc\JJ	.	.
8AAA/	8AA/	8AA/	8c/	16dd\LL	16bb-\LL	16bb-\LL	8AA/	8c/	16dd\LL	16bb-\LL	.	.
.	.	.	.	16cc\	16aa\	16aa\	.	.	16cc\	16aa\	.	.
8BBB-/J	8BB-/J	8BB-/J	8d/J	16b-\	16gg\	16gg\	8BB-/J	8d/J	16b-\	16gg\	.	.
.	.	.	.	16a\JJ	16ff\JJ	16ff\JJ	.	.	16a\JJ	16ff\JJ	.	.
8CC/L	8C/L	8C/L	8G/	8g/	8ee\	8ee\	8C/L	8e/	8g/	8ee\	.	8r
8CCC/J	8CC/J	8CC/J	8E/L	8G/L	8c/L	8c/L	8CC/J	16b-/LL	16ee\LL	16gg\LL	.	8c/
.	.	.	.	.	.	.	.	16a/JJ	16dd\JJ	16ff\JJ	.	.
4r	4r	4r	8G/	8c/	8e/	8e/	4r	16b-/LL	16ee\LL	16gg\LL	.	(12c/L
.	.	.	.	.	.	.	.	16a/	16dd\	16ff\	.	.
.	.	.	.	.	.	.	.	.	.	.	.	12c/
.	.	.	8c/J	8e/J	8g/J	8g/J	.	16b-/	16ee\	16gg\	.	.
.	.	.	.	.	.	.	.	.	.	.	.	12c/J)
.	.	.	.	.	.	.	.	16a/JJ	16dd\JJ	16ff\JJ	.	.
=80	=80	=80	=80	=80	=80	=80	=80	=80	=80	=80	=80	=80
8r	8r	8r	8C\L	8g/L	8b-\L	8b-/L	8r	8b-\L	8ee/L	8gg\L	2r	(12c/L
.	.	.	.	.	.	.	.	.	.	.	.	12F/
8CC\L	8C\L	8C\L	8e\	16a/LL	16cc\LL	16cc/LL	8C\L	16cc\LL	8e/	16cc\LL	.	.
.	.	.	.	.	.	.	.	.	.	.	.	12c/J)
.	.	.	.	16b-/JJ	16dd\JJ	16dd/JJ	.	16b-\JJ	.	16dd\JJ	.	.
8DD\	8D\	8D\	8f\	8a/L	16cc/LL	16cc/LL	8D\	8a/L	8f/	16cc\LL	.	(12c/L
.	.	.	.	.	16b-/	16b-/	.	.	.	16b-\	.	.
.	.	.	.	.	.	.	.	.	.	.	.	12c/
8EE\J	8E\J	8E\J	8g\J	8g/J	16a/	16a/	8E\J	8g/J	8g/J	16a\	.	.
.	.	.	.	.	.	.	.	.	.	.	.	12c/J)
.	.	.	.	.	16g/JJ	16g/JJ	.	.	.	16g\JJ	.	.
8FF/L	8F/L	8F/L	8c\L	8f/L	8a/L	8a/L	8F/L	8f\L	8c\L	8a\L	8r	(8.c/L
8FFF/J	8FF/J	8FF/J	8A\	8c/	8f/	8f/	8FF/J	16ee-\LL	16aa\LL	16ccc\LL	8F/	.
.	.	.	.	.	.	.	.	16dd\JJ	16gg\JJ	16bb-\JJ	.	16f/Jk)
4r	4r	4r	8c\	8f/	8a/	8a/	4r	16ee-\LL	16aa\LL	16ccc\LL	(12F/L	4r
.	.	.	.	.	.	.	.	16dd\	16gg\	16bb-\	.	.
.	.	.	.	.	.	.	.	.	.	.	12F/	.
.	.	.	8f\J	8a/J	8cc/J	8cc/J	.	16ee-\	16aa\	16ccc\	.	.
.	.	.	.	.	.	.	.	.	.	.	12F/J)	.
.	.	.	.	.	.	.	.	16dd\JJ	16gg\JJ	16bb-\JJ	.	.
=81	=81	=81	=81	=81	=81	=81	=81	=81	=81	=81	=81	=81
8r	8r	8r	8F\L	8cc\L	8ee-\L	8ee-\L	8r	8ee-\L	8aa\L	8ccc\L	(12F/L	1r
.	.	.	.	.	.	.	.	.	.	.	12C/	.
8FF\L	8F\L	8F\L	8a\	16dd\LL	16ff\LL	16ff\LL	8F\L	16ff\LL	8a\	16ff\LL	.	.
.	.	.	.	.	.	.	.	.	.	.	12F/J)	.
.	.	.	.	16ee-\JJ	16gg\JJ	16gg\JJ	.	16ee-\JJ	.	16gg\JJ	.	.
8GG\	8G\	8G\	8b-\	8dd\L	16ff\LL	16ff\LL	8G\	8dd\L	8b-\	16ff\LL	(12F/L	.
.	.	.	.	.	16ee-\	16ee-\	.	.	.	16ee-\	.	.
.	.	.	.	.	.	.	.	.	.	.	12F/	.
8AA\J	8A\J	8A\J	8cc\J	8cc\J	16dd\	16dd\	8A\J	8cc\J	8cc\J	16dd\	.	.
.	.	.	.	.	.	.	.	.	.	.	12F/J)	.
.	.	.	.	.	16cc\JJ	16cc\JJ	.	.	.	16cc\JJ	.	.
16BB-\LL	16B-\LL	16B-\LL	8f\L	8b-\L	8dd\L	8dd\L	16B-\LL	8b-\L	8f\L	8dd\L	(8.F/L	.
16BBB-\	16BB-\	16BB-\	.	.	.	.	16BB-\	.	.	.	.	.
16BB-\	16B-\	16B-\	16b-\LL	16dd\LL	16gg\LL	16gg\LL	16B-\	16b-\LL	16dd\LL	16gg\LL	.	.
16AA\JJ	16A\JJ	16A\JJ	16cc\JJ	16ee-\JJ	16aa\JJ	16aa\JJ	16A\JJ	16cc\JJ	16ee-\JJ	16aa\JJ	16c/Jk)	.
16BB-\LL	16B-\LL	16B-\LL	8b-\L	8dd\L	16gg\LL	16gg\LL	16B-\LL	8b-/L	8dd\L	16gg\LL	4r	.
16AA\	16A\	16A\	.	.	16ff\	16ff\	16A\	.	.	16ff\	.	.
16BB-\	16B-\	16B-\	8g\J	8b-\J	16ee\	16een\	16B-\	8g/J	8b-\J	16ee\	.	.
16AA\JJ	16A\JJ	16A\JJ	.	.	16dd\JJ	16dd\JJ	16A\JJ	.	.	16dd\JJ	.	.
=82	=82	=82	=82	=82	=82	=82	=82	=82	=82	=82	=82	=82
16BB-\LL	16B-\LL	16B-\LL	8.e\L	8.g/L	8.cc\L	8.cc/L	16B-\LL	8.e/L	8.g/L	8.cc\L	2r	1r
16C\	16c\	16c\	.	.	.	.	16c\	.	.	.	.	.
16BB-\	16B-\	16B-\	.	.	.	.	16B-\	.	.	.	.	.
16AA\JJ	16A\JJ	16A\JJ	16f\Jk	16a/Jk	16dd\Jk	16dd/Jk	16A\JJ	16f/Jk	16a/Jk	16dd\Jk	.	.
16GG\LL	16G\LL	16G\LL	16g\LL	16b-/LL	16ee\LL	16ee\LL	16G\LL	16g/LL	16b-/LL	16ee\LL	.	.
16FF\	16F\	16F\	16a\	16a/	16ff\	16ff\	16F\	16a/	16a/	16ff\	.	.
16EE\	16E\	16E\	16b-\	16g/	16gg\	16gg\	16E\	16b-/	16g/	16gg\	.	.
16DD\JJ	16D\JJ	16D\JJ	16g\JJ	16f/JJ	16aa\JJ	16aa\JJ	16D\JJ	16g/JJ	16f/JJ	16aa\JJ	.	.
8CC\L	8C\L	8C\L	[4cc\	8e/L	(16bb-\LL	(16bb-\LL	8C\L	[4cc\	8e/L	16bb-\LL	4r	.
.	.	.	.	.	32ccc\LLL	32ccc\LLL	.	.	.	32ccc\LLL	.	.
.	.	.	.	.	32bb-\	32bb-\	.	.	.	32bb-\	.	.
8FF\	8F\	8F\	.	16f/LL	32aa\	32aa\	8F\	.	16f/LL	32aa\	.	.
.	.	.	.	.	32bb-\JJJ	32bb-\JJJ	.	.	.	32bb-\JJJ	.	.
.	.	.	.	16g/JJ	16ccc\JJ)	16ccc\JJ)	.	.	16g/JJ	16ccc\JJ	.	.
8C\	8c\	8c\	16cc\LL]	8.et/L	8.ggT\L	8.ggT\L	8c\	16cc\LL]	8.et/L	8.ggT\L	8r	.
.	.	.	16b-\	.	.	.	.	16b-\	.	.	.	.
8CC\J	8C\J	8C\J	16cc\	.	.	.	8C\J	16cc\	.	.	8c/	.
.	.	.	16b-\JJ	16f/Jk	16ff\Jk	16ff\Jk	.	16b-\JJ	16f/Jk	16ff\Jk	.	.
=83	=83	=83	=83	=83	=83	=83	=83	=83	=83	=83	=83	=83
16DD/LL	16D/LL	16D/LL	8a\L	8f/L	16ff\LL	16ff\LL	16D/LL	8a/L	8f/L	16ff\LL	(12f\L	8r
16CC/	16C/	16C/	.	.	16ee\	16ee\	16C/	.	.	16ee\	.	.
.	.	.	.	.	.	.	.	.	.	.	12f\	.
16DD/	16D/	16D/	8f\	8a/	16ff\	16ff\	16D/	8f/	8a/	16ff\	.	8c/
.	.	.	.	.	.	.	.	.	.	.	12f\J)	.
16CC/JJ	16C/JJ	16C/JJ	.	.	16ee\JJ	16ee\JJ	16C/JJ	.	.	16ee\JJ	.	.
16BBB-/LL	16BB-/LL	16BB-/LL	8f\	8b-/	16dd\LL	16dd/LL	16BB-/LL	8f/	8b-/	16dd\LL	(12f/L	(12f\L
16AAA/	16AA/	16AA/	.	.	16cc\	16cc/	16AA/	.	.	16cc\	.	.
.	.	.	.	.	.	.	.	.	.	.	12c/	12f\
16BBB-/	16BB-/	16BB-/	8f\J	8d/J	16dd\	16dd/	16BB-/	8f/J	8d/J	16dd\	.	.
.	.	.	.	.	.	.	.	.	.	.	12f/J)	12f\J)
16AAA/JJ	16AA/JJ	16AA/JJ	.	.	16cc\JJ	16cc/JJ	16AA/JJ	.	.	16cc\JJ	.	.
8GGG/L	8GG/L	8GG/L	8g\L	16d/LL	(16b-\LL	(16b-/LL	8GG/L	8g/L	16d/LL	16b-\LL	(12c/L	(12f/L
.	.	.	.	16e/	32cc\LLL	32cc/LLL	.	.	16e/	32cc\LLL	.	.
.	.	.	.	.	.	.	.	.	.	.	12A/	12c/
.	.	.	.	.	32b-\	32b-/	.	.	.	32b-\	.	.
8FFF/	8FF/	8FF/	8c\J	16f/	32a\	32a/	8FF/	8c/J	16f/	32a\	.	.
.	.	.	.	.	32b-\JJJ	32b-/JJJ	.	.	.	32b-\JJJ	.	.
.	.	.	.	.	.	.	.	.	.	.	12c/J)	12f/J)
.	.	.	.	16g/JJ	16cc\JJ)	16cc/JJ)	.	.	16g/JJ	16cc\JJ	.	.
8CC/	8C/	8C/	8.c\L	8.et/L	8.gT/L	8.gT/L	8C/	8.c/L	8.et/L	8.gT/L	(12A/L	(12c/L
.	.	.	.	.	.	.	.	.	.	.	12F/	12A/
8CCC/J	8CC/J	8CC/J	.	.	.	.	8CC/J	.	.	.	.	.
.	.	.	.	.	.	.	.	.	.	.	12A/J)	12c/J)
.	.	.	16c\Jk	16f/Jk	16f/Jk	16f/Jk	.	16c/Jk	16f/Jk	16f/Jk	.	.
=84	=84	=84	=84	=84	=84	=84	=84	=84	=84	=84	=84	=84
8FFF/L	8FF/L	8FF/L	8c\L	8f/L	8f/L	8f/L	8FF/L	8c/L	8f/L	8f\L	(12F/L	(12A/L
.	.	.	.	.	.	.	.	.	.	.	12F/	12A/
(16FFF/LL	(16FF/LL	(16FF/LL	8A\	8c/	8f/	8f/	(16FF/LL	16a/LL	16cc/LL	16ff\LL	.	.
.	.	.	.	.	.	.	.	.	.	.	12F/J)	12A/J)
16FFF/JJ)	16FF/JJ)	16FF/JJ)	.	.	.	.	16FF/JJ)	16g/JJ	16b-/JJ	16ee\JJ	.	.
(16FFF/LL	(16FF/LL	(16FF/LL	8c\	8f/	8a/	8a/	(16FF/LL	16a/LL	16cc\LL	16ff\LL	(12F/L	(12A/L
16FFF/	16FF/	16FF/	.	.	.	.	16FF/	16g/	16b-\	16ee\	.	.
.	.	.	.	.	.	.	.	.	.	.	12F/	12A/
16FFF/	16FF/	16FF/	8f\J	8a/J	8cc/J	8cc/J	16FF/	16a/	16cc\	16ff\	.	.
.	.	.	.	.	.	.	.	.	.	.	12F/J)	12A/J)
16FFF/JJ)	16FF/JJ)	16FF/JJ)	.	.	.	.	16FF/JJ)	16g/JJ	16b-\JJ	16ee\JJ	.	.
2FFF;/	2FF;/	2FF;/	2a;\	2cc;\	2ff;\	2ff;\	2FF;/	2a;/	2cc;\	2ff;\	2F;/	2A;/
==	==	==	==	==	==	==	==	==	==	==	==	==
*-	*-	*-	*-	*-	*-	*-	*-	*-	*-	*-	*-	*-
!!!CDT: 1685/3//-1750/7/28
!!!OCY: Deutschland
!!!ODE: His Royal Highness Christian Ludwig, Margrave of Brandenburg.
!!!ODT: 1717//
!!!OPC: ?Coethen; ?Cothen; ?Co2then
!!!PPR: Peters
!!!PDT: 1850
!!!PPP: Leipzig
!!!AGN: concerto grosso
!!!AST: baroque, orchestral
!!!AMT: simple duple
!!!SCA: Bach-Werke-Verzeichnis
!!!YOR: Bach Gesellschaft, xix,1
!!!YOY: 1871; although imprint says 1869
!!!AIN: cbass; cello; cemba; cont; cor; fagot; oboe; viola; violn; violp
!!!EEV: 1.0
!!!RDT: 1994 February 19
!!!YER: 1994 October 22
!!!YEN: United States of America
!!!EFL: 1/7
!!!EED: W.B. Hewlett
!!!ONB: 2 timebase errors fixed by Craig Sapp, 28 February 2001
!!!VTS: 3967431185
